; generated by Slic3r 1.2.9 on 2015-12-02 at 17:30:21

; external perimeters extrusion width = 0.40mm
; perimeters extrusion width = 0.56mm
; infill extrusion width = 0.56mm
; solid infill extrusion width = 0.56mm
; top infill extrusion width = 0.56mm

M107
M190 S50 ; set bed temperature
M104 S210 ; set temperature
G28 ; home all axes
G1 Z5 F5000 ; lift nozzle

M109 S210 ; wait for temperature to be reached
G21 ; set units to millimeters
G90 ; use absolute coordinates
M82 ; use absolute distances for extrusion
G92 E0
G1 E-3.00000 F2400.00000
G92 E0
G1 Z0.350 F7800.000
G1 X82.437 Y73.336 F7800.000
G1 E3.00000 F2400.00000
G1 X83.050 Y72.724 E3.07964 F2520.000
G1 X83.546 Y72.288 E3.14034
G1 X84.233 Y71.761 E3.22003
G1 X84.782 Y71.394 E3.28072
G1 X85.533 Y70.961 E3.36048
G1 X86.125 Y70.669 E3.42118
G1 X86.924 Y70.338 E3.50080
G1 X87.549 Y70.126 E3.56149
G1 X88.387 Y69.901 E3.64125
G1 X89.034 Y69.772 E3.70195
G1 X89.893 Y69.659 E3.78167
G1 X90.985 Y69.602 E3.88217
G1 X109.015 Y69.602 E5.54060
G1 X110.107 Y69.659 E5.64110
G1 X110.966 Y69.772 E5.72083
G1 X111.613 Y69.901 E5.78152
G1 X112.451 Y70.126 E5.86128
G1 X113.076 Y70.338 E5.92197
G1 X113.875 Y70.669 E6.00160
G1 X114.467 Y70.961 E6.06229
G1 X115.218 Y71.394 E6.14206
G1 X115.767 Y71.761 E6.20275
G1 X116.454 Y72.288 E6.28243
G1 X116.950 Y72.723 E6.34312
G1 X117.563 Y73.336 E6.42279
G1 X135.938 Y94.926 E9.03042
G1 X136.400 Y95.537 E9.10086
G1 X136.766 Y96.085 E9.16154
G1 X137.200 Y96.836 E9.24130
G1 X137.492 Y97.428 E9.30198
G1 X137.823 Y98.229 E9.38174
G1 X138.035 Y98.854 E9.44242
G1 X138.259 Y99.689 E9.52199
G1 X138.388 Y100.336 E9.58267
G1 X138.501 Y101.197 E9.66251
G1 X138.559 Y102.288 E9.76300
G1 X138.559 Y116.735 E11.09181
G1 X138.504 Y117.894 E11.19853
G1 X138.421 Y118.633 E11.26690
G1 X138.289 Y119.411 E11.33950
G1 X138.123 Y120.135 E11.40784
G1 X137.905 Y120.894 E11.48043
G1 X137.659 Y121.595 E11.54879
G1 X137.357 Y122.324 E11.62139
G1 X137.035 Y122.993 E11.68966
G1 X136.653 Y123.684 E11.76225
G1 X136.258 Y124.313 E11.83058
G1 X135.801 Y124.957 E11.90318
G1 X135.338 Y125.538 E11.97158
G1 X134.812 Y126.127 E12.04418
G1 X134.287 Y126.651 E12.11242
G1 X133.699 Y127.177 E12.18501
G1 X133.117 Y127.641 E12.25340
G1 X132.474 Y128.097 E12.32599
G1 X131.845 Y128.493 E12.39430
G1 X131.154 Y128.874 E12.46690
G1 X130.485 Y129.197 E12.53523
G1 X129.756 Y129.499 E12.60782
G1 X129.054 Y129.744 E12.67615
G1 X128.296 Y129.963 E12.74874
G1 X127.572 Y130.128 E12.81708
G1 X126.793 Y130.260 E12.88967
G1 X126.056 Y130.343 E12.95796
G1 X124.896 Y130.398 E13.06477
G1 X75.104 Y130.398 E17.64449
G1 X73.944 Y130.343 E17.75129
G1 X73.206 Y130.260 E17.81958
G1 X72.428 Y130.128 E17.89217
G1 X71.704 Y129.963 E17.96051
G1 X70.946 Y129.744 E18.03310
G1 X70.244 Y129.499 E18.10143
G1 X69.515 Y129.197 E18.17402
G1 X68.846 Y128.874 E18.24235
G1 X68.155 Y128.493 E18.31495
G1 X67.526 Y128.097 E18.38326
G1 X66.883 Y127.641 E18.45586
G1 X66.301 Y127.177 E18.52425
G1 X65.713 Y126.651 E18.59683
G1 X65.188 Y126.127 E18.66508
G1 X64.662 Y125.538 E18.73767
G1 X64.199 Y124.957 E18.80607
G1 X63.742 Y124.313 E18.87867
G1 X63.347 Y123.684 E18.94701
G1 X62.965 Y122.993 E19.01959
G1 X62.643 Y122.324 E19.08786
G1 X62.341 Y121.595 E19.16046
G1 X62.095 Y120.894 E19.22881
G1 X61.877 Y120.135 E19.30142
G1 X61.711 Y119.411 E19.36974
G1 X61.579 Y118.633 E19.44235
G1 X61.496 Y117.894 E19.51071
G1 X61.441 Y116.735 E19.61744
G1 X61.441 Y102.288 E20.94625
G1 X61.499 Y101.197 E21.04675
G1 X61.612 Y100.336 E21.12658
G1 X61.741 Y99.689 E21.18726
G1 X61.965 Y98.854 E21.26683
G1 X62.177 Y98.229 E21.32751
G1 X62.508 Y97.428 E21.40727
G1 X62.800 Y96.836 E21.46796
G1 X63.234 Y96.085 E21.54771
G1 X63.600 Y95.537 E21.60840
G1 X64.062 Y94.926 E21.67883
G1 X82.398 Y73.381 E24.28096
G1 E21.28096 F2400.00000
G92 E0
G1 X111.810 Y119.968 F7800.000
G1 E3.00000 F2400.00000
G1 X111.330 Y120.365 E3.05725 F630.000
G1 X110.767 Y120.630 E3.11449
G1 X110.156 Y120.746 E3.17172
G1 X109.535 Y120.707 E3.22896
G1 X108.943 Y120.515 E3.28619
G1 X108.418 Y120.181 E3.34343
G1 X107.991 Y119.728 E3.40067
G1 X107.692 Y119.182 E3.45791
G1 X107.537 Y118.580 E3.51515
G1 X107.537 Y117.957 E3.57239
G1 X107.692 Y117.355 E3.62963
G1 X107.991 Y116.809 E3.68687
G1 X108.418 Y116.356 E3.74412
G1 X108.943 Y116.022 E3.80135
G1 X109.535 Y115.830 E3.85859
G1 X110.127 Y115.793 E3.91318
G1 X110.761 Y115.904 E3.97237
G1 X111.330 Y116.172 E4.03024
G1 X111.810 Y116.569 E4.08748
G1 X112.176 Y117.073 E4.14473
G1 X112.405 Y117.651 E4.20197
G1 X112.483 Y118.268 E4.25920
G1 X112.405 Y118.886 E4.31643
G1 X112.176 Y119.464 E4.37367
G1 X111.845 Y119.919 E4.42540
G1 X111.351 Y119.537 F7800.000
G1 X110.993 Y119.833 E4.46812 F630.000
G1 X110.573 Y120.031 E4.51084
G1 X110.116 Y120.118 E4.55355
G1 X109.653 Y120.088 E4.59627
G1 X109.211 Y119.945 E4.63899
G1 X108.819 Y119.696 E4.68170
G1 X108.501 Y119.358 E4.72442
G1 X108.277 Y118.951 E4.76714
G1 X108.162 Y118.501 E4.80986
G1 X108.162 Y118.036 E4.85257
G1 X108.277 Y117.586 E4.89529
G1 X108.501 Y117.179 E4.93801
G1 X108.819 Y116.841 E4.98073
G1 X109.211 Y116.592 E5.02344
G1 X109.653 Y116.449 E5.06616
G1 X110.092 Y116.421 E5.10663
G1 X110.570 Y116.505 E5.15130
G1 X110.993 Y116.704 E5.19425
G1 X111.351 Y117.000 E5.23697
G1 X111.624 Y117.376 E5.27969
G1 X111.795 Y117.808 E5.32241
G1 X111.853 Y118.268 E5.36512
G1 X111.795 Y118.729 E5.40783
G1 X111.624 Y119.161 E5.45055
G1 X111.386 Y119.488 E5.48775
G1 X111.450 Y119.924 F7800.000
G1 E2.48775 F2400.00000
G92 E0
G1 X106.525 Y113.243 F7800.000
G1 E3.00000 F2400.00000
G1 X106.525 Y104.294 E3.82318 F2520.000
G1 X123.475 Y104.294 E5.38218
G1 X123.475 Y113.243 E6.20536
G1 X106.585 Y113.243 E7.75885
G1 X107.150 Y112.618 F7800.000
G1 X107.150 Y104.918 E8.46708 F1260.000
G1 X122.850 Y104.918 E9.91113
G1 X122.850 Y112.618 E10.61935
G1 X107.210 Y112.618 E12.05789
G1 X106.750 Y112.618 F7800.000
G1 E9.05789 F2400.00000
G92 E0
G1 X109.535 Y100.707 F7800.000
G1 E3.00000 F2400.00000
G1 X108.943 Y100.515 E3.05724 F630.000
G1 X108.418 Y100.181 E3.11448
G1 X107.991 Y99.728 E3.17172
G1 X107.692 Y99.182 E3.22896
G1 X107.537 Y98.580 E3.28620
G1 X107.537 Y97.957 E3.34344
G1 X107.692 Y97.355 E3.40067
G1 X107.991 Y96.809 E3.45791
G1 X108.418 Y96.356 E3.51515
G1 X108.943 Y96.022 E3.57239
G1 X109.535 Y95.830 E3.62963
G1 X110.127 Y95.793 E3.68423
G1 X110.761 Y95.904 E3.74342
G1 X111.330 Y96.172 E3.80128
G1 X111.810 Y96.569 E3.85852
G1 X112.176 Y97.072 E3.91577
G1 X112.405 Y97.651 E3.97301
G1 X112.483 Y98.268 E4.03025
G1 X112.405 Y98.886 E4.08748
G1 X112.176 Y99.464 E4.14472
G1 X111.810 Y99.968 E4.20197
G1 X111.330 Y100.365 E4.25921
G1 X110.793 Y100.617 E4.31380
G1 X110.163 Y100.747 E4.37300
G1 X109.595 Y100.711 E4.42534
G1 X109.653 Y100.088 F7800.000
G1 X109.211 Y99.945 E4.46806 F630.000
G1 X108.819 Y99.696 E4.51078
G1 X108.501 Y99.358 E4.55350
G1 X108.277 Y98.951 E4.59621
G1 X108.162 Y98.501 E4.63893
G1 X108.162 Y98.036 E4.68165
G1 X108.277 Y97.586 E4.72437
G1 X108.501 Y97.179 E4.76708
G1 X108.819 Y96.841 E4.80980
G1 X109.211 Y96.592 E4.85252
G1 X109.653 Y96.449 E4.89523
G1 X110.092 Y96.421 E4.93571
G1 X110.570 Y96.505 E4.98038
G1 X110.993 Y96.704 E5.02332
G1 X111.351 Y97.000 E5.06604
G1 X111.624 Y97.376 E5.10876
G1 X111.795 Y97.808 E5.15148
G1 X111.853 Y98.268 E5.19420
G1 X111.795 Y98.729 E5.23691
G1 X111.624 Y99.161 E5.27963
G1 X111.351 Y99.537 E5.32235
G1 X110.993 Y99.833 E5.36507
G1 X110.595 Y100.020 E5.40555
G1 X110.119 Y100.118 E5.45022
G1 X109.713 Y100.092 E5.48764
G1 X109.379 Y100.380 F7800.000
G1 X92.483 Y98.268 F7800.000
G1 X92.405 Y98.886 E5.54488 F630.000
G1 X92.176 Y99.465 E5.60212
G1 X91.810 Y99.968 E5.65936
G1 X91.330 Y100.365 E5.71660
G1 X90.767 Y100.630 E5.77384
G1 X90.156 Y100.746 E5.83107
G1 X89.535 Y100.707 E5.88832
G1 X88.943 Y100.515 E5.94556
G1 X88.418 Y100.181 E6.00279
G1 X87.992 Y99.728 E6.06002
G1 X87.692 Y99.182 E6.11727
G1 X87.537 Y98.580 E6.17451
G1 X87.537 Y97.957 E6.23175
G1 X87.692 Y97.355 E6.28899
G1 X87.992 Y96.809 E6.34624
G1 X88.418 Y96.356 E6.40347
G1 X88.943 Y96.022 E6.46070
G1 X89.535 Y95.830 E6.51794
G1 X90.127 Y95.793 E6.57254
G1 X90.761 Y95.904 E6.63174
G1 X91.330 Y96.172 E6.68961
G1 X91.810 Y96.569 E6.74684
G1 X92.176 Y97.072 E6.80408
G1 X92.405 Y97.651 E6.86132
G1 X92.475 Y98.209 E6.91304
G1 X91.853 Y98.268 F7800.000
G1 X91.795 Y98.729 E6.95576 F630.000
G1 X91.624 Y99.161 E6.99848
G1 X91.351 Y99.537 E7.04119
G1 X90.993 Y99.833 E7.08391
G1 X90.573 Y100.031 E7.12663
G1 X90.116 Y100.118 E7.16935
G1 X89.653 Y100.088 E7.21207
G1 X89.211 Y99.945 E7.25478
G1 X88.819 Y99.696 E7.29750
G1 X88.501 Y99.358 E7.34021
G1 X88.277 Y98.951 E7.38293
G1 X88.162 Y98.501 E7.42565
G1 X88.162 Y98.036 E7.46837
G1 X88.277 Y97.586 E7.51109
G1 X88.501 Y97.179 E7.55381
G1 X88.819 Y96.841 E7.59652
G1 X89.211 Y96.592 E7.63923
G1 X89.653 Y96.449 E7.68195
G1 X90.092 Y96.421 E7.72243
G1 X90.570 Y96.505 E7.76711
G1 X90.993 Y96.704 E7.81005
G1 X91.351 Y97.000 E7.85276
G1 X91.624 Y97.376 E7.89548
G1 X91.795 Y97.808 E7.93820
G1 X91.845 Y98.209 E7.97540
G1 X92.191 Y98.483 F7800.000
G1 X93.475 Y104.294 F7800.000
G1 X93.475 Y113.243 E8.79858 F2520.000
G1 X76.525 Y113.243 E10.35758
G1 X76.525 Y104.294 E11.18076
G1 X93.415 Y104.294 E12.73424
G1 X92.850 Y104.918 F7800.000
G1 X92.850 Y112.618 E13.44247 F1260.000
G1 X77.150 Y112.618 E14.88652
G1 X77.150 Y104.918 E15.59475
G1 X92.790 Y104.918 E17.03328
G1 X93.250 Y104.918 F7800.000
G1 E14.03328 F2400.00000
G92 E0
G1 X90.761 Y115.904 F7800.000
G1 E3.00000 F2400.00000
G1 X91.330 Y116.172 E3.05787 F630.000
G1 X91.810 Y116.569 E3.11511
G1 X92.176 Y117.073 E3.17235
G1 X92.405 Y117.651 E3.22959
G1 X92.483 Y118.268 E3.28683
G1 X92.405 Y118.886 E3.34406
G1 X92.176 Y119.464 E3.40130
G1 X91.810 Y119.968 E3.45854
G1 X91.330 Y120.365 E3.51578
G1 X90.767 Y120.630 E3.57303
G1 X90.156 Y120.746 E3.63026
G1 X89.535 Y120.707 E3.68750
G1 X88.943 Y120.515 E3.74474
G1 X88.418 Y120.181 E3.80197
G1 X87.992 Y119.728 E3.85920
G1 X87.692 Y119.182 E3.91645
G1 X87.537 Y118.580 E3.97369
G1 X87.537 Y117.957 E4.03093
G1 X87.692 Y117.355 E4.08818
G1 X87.992 Y116.809 E4.14542
G1 X88.418 Y116.356 E4.20266
G1 X88.943 Y116.022 E4.25989
G1 X89.535 Y115.830 E4.31712
G1 X90.127 Y115.793 E4.37172
G1 X90.702 Y115.894 E4.42540
G1 X90.570 Y116.505 F7800.000
G1 X90.993 Y116.704 E4.46834 F630.000
G1 X91.351 Y117.000 E4.51106
G1 X91.624 Y117.376 E4.55378
G1 X91.795 Y117.808 E4.59650
G1 X91.853 Y118.268 E4.63921
G1 X91.795 Y118.729 E4.68192
G1 X91.624 Y119.161 E4.72464
G1 X91.351 Y119.537 E4.76736
G1 X90.993 Y119.833 E4.81008
G1 X90.573 Y120.031 E4.85280
G1 X90.116 Y120.118 E4.89551
G1 X89.653 Y120.088 E4.93823
G1 X89.211 Y119.945 E4.98095
G1 X88.819 Y119.696 E5.02366
G1 X88.501 Y119.358 E5.06637
G1 X88.277 Y118.951 E5.10910
G1 X88.162 Y118.501 E5.15182
G1 X88.162 Y118.036 E5.19453
G1 X88.277 Y117.586 E5.23725
G1 X88.501 Y117.179 E5.27997
G1 X88.819 Y116.841 E5.32269
G1 X89.211 Y116.592 E5.36540
G1 X89.653 Y116.449 E5.40812
G1 X90.092 Y116.421 E5.44859
G1 X90.511 Y116.495 E5.48775
G1 X90.877 Y116.249 F7800.000
G1 E2.48775 F2400.00000
G92 E0
G1 X91.525 Y89.243 F7800.000
G1 E3.00000 F2400.00000
G1 X91.525 Y80.294 E3.82318 F2520.000
G1 X108.475 Y80.294 E5.38218
G1 X108.475 Y89.243 E6.20536
G1 X91.585 Y89.243 E7.75885
G1 X92.150 Y88.618 F7800.000
G1 X92.150 Y80.918 E8.46708 F1260.000
G1 X107.850 Y80.918 E9.91113
G1 X107.850 Y88.618 E10.61935
G1 X92.210 Y88.618 E12.05789
G1 X91.750 Y88.618 F7800.000
G1 X86.915 Y90.907 F7800.000
G1 X86.915 Y81.303 E12.94126 F2520.000
G1 X86.952 Y80.740 E12.99314
G1 X87.056 Y80.218 E13.04207
G1 X87.227 Y79.714 E13.09101
G1 X87.463 Y79.237 E13.13994
G1 X87.758 Y78.795 E13.18887
G1 X88.109 Y78.395 E13.23780
G1 X88.509 Y78.044 E13.28673
G1 X88.951 Y77.749 E13.33566
G1 X89.428 Y77.513 E13.38460
G1 X89.932 Y77.342 E13.43353
G1 X90.454 Y77.239 E13.48245
G1 X91.016 Y77.202 E13.53433
G1 X108.984 Y77.202 E15.18689
G1 X109.469 Y77.234 E15.23160
G1 X110.075 Y77.345 E15.28831
G1 X110.572 Y77.513 E15.33656
G1 X111.049 Y77.749 E15.38550
G1 X111.491 Y78.044 E15.43443
G1 X111.891 Y78.395 E15.48336
G1 X112.242 Y78.795 E15.53229
G1 X112.537 Y79.237 E15.58122
G1 X112.773 Y79.714 E15.63015
G1 X112.944 Y80.218 E15.67909
G1 X113.048 Y80.740 E15.72802
G1 X113.085 Y81.303 E15.77990
G1 X113.085 Y90.907 E16.66327
G1 X113.129 Y91.702 E16.73646
G1 X113.267 Y92.513 E16.81218
G1 X113.495 Y93.304 E16.88790
G1 X113.810 Y94.065 E16.96362
G1 X114.208 Y94.785 E17.03934
G1 X114.684 Y95.457 E17.11505
G1 X115.233 Y96.070 E17.19076
G1 X115.847 Y96.619 E17.26648
G1 X116.518 Y97.095 E17.34220
G1 X117.239 Y97.494 E17.41791
G1 X117.999 Y97.809 E17.49363
G1 X118.790 Y98.036 E17.56934
G1 X119.602 Y98.174 E17.64506
G1 X120.396 Y98.219 E17.71826
G1 X126.858 Y98.219 E18.31256
G1 X127.421 Y98.256 E18.36444
G1 X127.942 Y98.360 E18.41337
G1 X128.446 Y98.531 E18.46230
G1 X128.923 Y98.766 E18.51123
G1 X129.366 Y99.061 E18.56017
G1 X129.766 Y99.412 E18.60910
G1 X130.116 Y99.812 E18.65803
G1 X130.412 Y100.255 E18.70696
G1 X130.647 Y100.732 E18.75589
G1 X130.818 Y101.235 E18.80482
G1 X130.922 Y101.757 E18.85376
G1 X130.959 Y102.320 E18.90562
G1 X130.959 Y116.708 E20.22899
G1 X130.919 Y117.414 E20.29403
G1 X130.805 Y118.084 E20.35655
G1 X130.617 Y118.737 E20.41906
G1 X130.357 Y119.365 E20.48159
G1 X130.028 Y119.960 E20.54411
G1 X129.635 Y120.514 E20.60663
G1 X129.182 Y121.021 E20.66916
G1 X128.675 Y121.474 E20.73167
G1 X128.121 Y121.868 E20.79419
G1 X127.526 Y122.196 E20.85672
G1 X126.898 Y122.456 E20.91924
G1 X126.245 Y122.645 E20.98176
G1 X125.574 Y122.759 E21.04428
G1 X124.868 Y122.798 E21.10932
G1 X75.132 Y122.798 E25.68401
G1 X74.426 Y122.759 E25.74905
G1 X73.755 Y122.645 E25.81157
G1 X73.102 Y122.456 E25.87409
G1 X72.474 Y122.196 E25.93661
G1 X71.879 Y121.868 E25.99914
G1 X71.325 Y121.474 E26.06166
G1 X70.818 Y121.021 E26.12417
G1 X70.365 Y120.514 E26.18670
G1 X69.972 Y119.960 E26.24922
G1 X69.643 Y119.365 E26.31174
G1 X69.383 Y118.737 E26.37427
G1 X69.195 Y118.084 E26.43678
G1 X69.081 Y117.414 E26.49930
G1 X69.041 Y116.708 E26.56434
G1 X69.041 Y102.320 E27.88771
G1 X69.078 Y101.757 E27.93957
G1 X69.182 Y101.235 E27.98851
G1 X69.353 Y100.732 E28.03744
G1 X69.588 Y100.255 E28.08637
G1 X69.884 Y99.812 E28.13530
G1 X70.234 Y99.412 E28.18423
G1 X70.634 Y99.061 E28.23316
G1 X71.077 Y98.766 E28.28210
G1 X71.554 Y98.531 E28.33103
G1 X72.058 Y98.360 E28.37996
G1 X72.579 Y98.256 E28.42889
G1 X73.142 Y98.219 E28.48076
G1 X79.604 Y98.219 E29.07507
G1 X80.398 Y98.174 E29.14827
G1 X81.210 Y98.036 E29.22399
G1 X82.001 Y97.809 E29.29970
G1 X82.761 Y97.494 E29.37542
G1 X83.482 Y97.095 E29.45113
G1 X84.153 Y96.619 E29.52685
G1 X84.767 Y96.070 E29.60257
G1 X85.316 Y95.457 E29.67828
G1 X85.792 Y94.785 E29.75399
G1 X86.190 Y94.065 E29.82971
G1 X86.505 Y93.304 E29.90543
G1 X86.733 Y92.513 E29.98115
G1 X86.871 Y91.702 E30.05686
G1 X86.912 Y90.967 E30.12454
G1 X86.291 Y90.890 F7800.000
G1 X86.291 Y81.282 E31.00819 F1260.000
G1 X86.332 Y80.658 E31.06571
G1 X86.451 Y80.056 E31.12218
G1 X86.649 Y79.475 E31.17865
G1 X86.920 Y78.924 E31.23511
G1 X87.261 Y78.414 E31.29157
G1 X87.666 Y77.952 E31.34804
G1 X88.128 Y77.547 E31.40451
G1 X88.638 Y77.206 E31.46097
G1 X89.189 Y76.935 E31.51744
G1 X89.770 Y76.737 E31.57390
G1 X90.372 Y76.618 E31.63037
G1 X90.996 Y76.577 E31.68789
G1 X109.004 Y76.577 E33.34422
G1 X109.546 Y76.612 E33.39414
G1 X110.233 Y76.738 E33.45839
G1 X110.811 Y76.935 E33.51460
G1 X111.362 Y77.206 E33.57107
G1 X111.872 Y77.547 E33.62754
G1 X112.334 Y77.952 E33.68400
G1 X112.739 Y78.414 E33.74048
G1 X113.080 Y78.924 E33.79694
G1 X113.351 Y79.475 E33.85340
G1 X113.549 Y80.056 E33.90987
G1 X113.668 Y80.658 E33.96633
G1 X113.709 Y81.282 E34.02386
G1 X113.709 Y90.890 E34.90751
G1 X113.751 Y91.632 E34.97586
G1 X113.877 Y92.374 E35.04512
G1 X114.086 Y93.098 E35.11438
G1 X114.374 Y93.793 E35.18364
G1 X114.738 Y94.452 E35.25291
G1 X115.174 Y95.066 E35.32217
G1 X115.676 Y95.628 E35.39142
G1 X116.237 Y96.130 E35.46069
G1 X116.851 Y96.565 E35.52995
G1 X117.510 Y96.930 E35.59920
G1 X118.206 Y97.218 E35.66847
G1 X118.929 Y97.426 E35.73773
G1 X119.672 Y97.552 E35.80699
G1 X120.414 Y97.594 E35.87534
G1 X126.878 Y97.594 E36.46992
