; generated by Slic3r 1.2.9 on 2015-12-02 at 13:26:05

; external perimeters extrusion width = 0.40mm
; perimeters extrusion width = 0.56mm
; infill extrusion width = 0.56mm
; solid infill extrusion width = 0.56mm
; top infill extrusion width = 0.56mm

M107
M190 S50 ; set bed temperature
M104 S210 ; set temperature
G28 ; home all axes
G1 Z5 F5000 ; lift nozzle

M109 S210 ; wait for temperature to be reached
G21 ; set units to millimeters
G90 ; use absolute coordinates
M82 ; use absolute distances for extrusion
G92 E0
G1 E-3.00000 F2400.00000
G92 E0
G1 Z0.350 F7800.000
G1 X77.173 Y78.825 F7800.000
G1 E3.00000 F2400.00000
G1 X86.822 Y70.606 E4.16585 F2520.000
G1 X87.545 Y70.041 E4.25021
G1 X89.041 Y69.177 E4.40918
G1 X89.576 Y68.955 E4.46241
G1 X91.247 Y68.507 E4.62154
G1 X91.821 Y68.432 E4.67479
G1 X92.686 Y68.375 E4.75445
G1 X110.537 Y68.375 E6.39644
G1 X111.402 Y68.432 E6.47610
G1 X112.074 Y68.520 E6.53843
G1 X113.745 Y68.968 E6.69755
G1 X114.371 Y69.227 E6.75987
G1 X115.869 Y70.092 E6.91896
G1 X116.406 Y70.505 E6.98128
G1 X117.628 Y71.727 E7.14026
G1 X118.041 Y72.264 E7.20258
G1 X118.906 Y73.763 E7.36174
G1 X119.320 Y74.801 E7.46455
G1 X125.648 Y93.512 E9.28129
G1 X125.941 Y94.770 E9.40013
G1 X125.997 Y95.198 E9.43976
G1 X126.054 Y96.062 E9.51940
G1 X126.054 Y104.226 E10.27031
G1 X125.997 Y105.090 E10.34993
G1 X125.951 Y105.442 E10.38267
G1 X125.669 Y106.669 E10.49841
G1 X119.354 Y125.662 E12.33938
G1 X118.995 Y126.571 E12.42929
G1 X118.130 Y128.070 E12.58844
G1 X117.824 Y128.469 E12.63472
G1 X116.601 Y129.691 E12.79375
G1 X116.202 Y129.998 E12.84003
G1 X114.704 Y130.862 E12.99911
G1 X114.239 Y131.055 E13.04538
G1 X112.569 Y131.502 E13.20439
G1 X112.071 Y131.568 E13.25067
G1 X111.206 Y131.625 E13.33041
G1 X92.871 Y131.625 E15.01679
G1 X92.006 Y131.568 E15.09653
G1 X91.384 Y131.486 E15.15422
G1 X89.715 Y131.039 E15.31318
G1 X89.135 Y130.799 E15.37086
G1 X87.637 Y129.934 E15.52997
G1 X86.960 Y129.410 E15.60872
G1 X77.162 Y121.339 E16.77626
G1 X76.118 Y120.259 E16.91446
G1 X75.683 Y119.691 E16.98031
G1 X74.818 Y118.194 E17.13929
G1 X74.544 Y117.532 E17.20513
G1 X74.096 Y115.861 E17.36430
G1 X74.003 Y115.151 E17.43015
G1 X73.946 Y114.287 E17.50982
G1 X73.946 Y86.034 E20.10843
G1 X74.003 Y85.170 E20.18808
G1 X74.107 Y84.377 E20.26163
G1 X74.555 Y82.705 E20.42084
G1 X74.862 Y81.966 E20.49440
G1 X75.725 Y80.470 E20.65331
G1 X76.212 Y79.836 E20.72686
G1 X77.131 Y78.868 E20.84960
G1 E17.84960 F2400.00000
G92 E0
G1 X106.026 Y123.475 F7800.000
G1 E3.00000 F2400.00000
G1 X97.576 Y123.475 E3.77719 F2520.000
G1 X97.576 Y106.525 E5.33619
G1 X106.026 Y106.525 E6.11338
G1 X106.026 Y123.415 E7.66686
G1 X105.401 Y122.850 F7800.000
G1 X98.201 Y122.850 E8.32910 F1260.000
G1 X98.201 Y107.150 E9.77315
G1 X105.401 Y107.150 E10.43539
G1 X105.401 Y122.790 E11.87392
G1 X105.401 Y123.250 F7800.000
G1 E8.87392 F2400.00000
G92 E0
G1 X95.631 Y109.596 F7800.000
G1 E3.00000 F2400.00000
G1 X95.068 Y109.861 E3.05724 F630.000
G1 X94.457 Y109.978 E3.11448
G1 X93.836 Y109.939 E3.17172
G1 X93.244 Y109.746 E3.22896
G1 X92.718 Y109.413 E3.28619
G1 X92.292 Y108.959 E3.34343
G1 X91.992 Y108.414 E3.40067
G1 X91.838 Y107.811 E3.45791
G1 X91.838 Y107.189 E3.51515
G1 X91.992 Y106.586 E3.57239
G1 X92.292 Y106.041 E3.62963
G1 X92.718 Y105.587 E3.68687
G1 X93.244 Y105.254 E3.74411
G1 X93.836 Y105.061 E3.80134
G1 X94.428 Y105.024 E3.85594
G1 X95.062 Y105.136 E3.91514
G1 X95.631 Y105.404 E3.97300
G1 X96.111 Y105.801 E4.03024
G1 X96.476 Y106.304 E4.08748
G1 X96.705 Y106.883 E4.14472
G1 X96.783 Y107.500 E4.20196
G1 X96.705 Y108.117 E4.25920
G1 X96.476 Y108.696 E4.31643
G1 X96.111 Y109.199 E4.37367
G1 X95.677 Y109.558 E4.42539
G1 X95.294 Y109.064 F7800.000
G1 X94.873 Y109.262 E4.46811 F630.000
G1 X94.417 Y109.349 E4.51083
G1 X93.954 Y109.320 E4.55354
G1 X93.512 Y109.176 E4.59626
G1 X93.120 Y108.928 E4.63898
G1 X92.802 Y108.589 E4.68170
G1 X92.578 Y108.182 E4.72441
G1 X92.463 Y107.732 E4.76713
G1 X92.463 Y107.268 E4.80985
G1 X92.578 Y106.818 E4.85256
G1 X92.802 Y106.411 E4.89528
G1 X93.120 Y106.072 E4.93800
G1 X93.512 Y105.824 E4.98071
G1 X93.954 Y105.680 E5.02343
G1 X94.393 Y105.652 E5.06391
G1 X94.871 Y105.737 E5.10858
G1 X95.294 Y105.936 E5.15152
G1 X95.651 Y106.232 E5.19424
G1 X95.924 Y106.607 E5.23696
G1 X96.095 Y107.039 E5.27967
G1 X96.154 Y107.500 E5.32239
G1 X96.095 Y107.961 E5.36511
G1 X95.924 Y108.393 E5.40782
G1 X95.651 Y108.768 E5.45054
G1 X95.340 Y109.026 E5.48774
G1 X95.294 Y109.464 F7800.000
G1 E2.48774 F2400.00000
G92 E0
G1 X94.457 Y102.478 F7800.000
G1 E3.00000 F2400.00000
G1 X93.836 Y102.439 E3.05724 F630.000
G1 X93.244 Y102.246 E3.11448
G1 X92.718 Y101.913 E3.17172
G1 X92.292 Y101.459 E3.22896
G1 X91.992 Y100.914 E3.28620
G1 X91.838 Y100.311 E3.34343
G1 X91.838 Y99.689 E3.40067
G1 X91.992 Y99.086 E3.45791
G1 X92.292 Y98.541 E3.51515
G1 X92.718 Y98.087 E3.57239
G1 X93.244 Y97.754 E3.62963
G1 X93.836 Y97.561 E3.68687
G1 X94.428 Y97.524 E3.74146
G1 X95.062 Y97.636 E3.80066
G1 X95.631 Y97.904 E3.85853
G1 X96.110 Y98.301 E3.91576
G1 X96.476 Y98.804 E3.97300
G1 X96.705 Y99.383 E4.03024
G1 X96.783 Y100.000 E4.08748
G1 X96.705 Y100.617 E4.14472
G1 X96.476 Y101.196 E4.20196
G1 X96.111 Y101.699 E4.25920
G1 X95.631 Y102.096 E4.31644
G1 X95.068 Y102.361 E4.37367
G1 X94.516 Y102.466 E4.42539
G1 X94.417 Y101.849 F7800.000
G1 X93.954 Y101.820 E4.46811 F630.000
G1 X93.512 Y101.676 E4.51083
G1 X93.120 Y101.428 E4.55354
G1 X92.802 Y101.089 E4.59626
G1 X92.578 Y100.682 E4.63898
G1 X92.463 Y100.232 E4.68170
G1 X92.463 Y99.768 E4.72441
G1 X92.578 Y99.318 E4.76713
G1 X92.802 Y98.911 E4.80985
G1 X93.120 Y98.572 E4.85256
G1 X93.512 Y98.324 E4.89528
G1 X93.954 Y98.180 E4.93800
G1 X94.393 Y98.152 E4.97847
G1 X94.871 Y98.237 E5.02315
G1 X95.294 Y98.436 E5.06609
G1 X95.651 Y98.732 E5.10881
G1 X95.924 Y99.107 E5.15152
G1 X96.095 Y99.539 E5.19424
G1 X96.154 Y100.000 E5.23696
G1 X96.095 Y100.461 E5.27967
G1 X95.924 Y100.893 E5.32239
G1 X95.651 Y101.268 E5.36511
G1 X95.294 Y101.564 E5.40783
G1 X94.873 Y101.762 E5.45054
G1 X94.476 Y101.838 E5.48774
G1 X94.224 Y102.200 F7800.000
G1 E2.48774 F2400.00000
G92 E0
G1 X94.457 Y94.978 F7800.000
G1 E3.00000 F2400.00000
G1 X93.836 Y94.939 E3.05724 F630.000
G1 X93.244 Y94.746 E3.11448
G1 X92.718 Y94.413 E3.17172
G1 X92.292 Y93.959 E3.22896
G1 X91.992 Y93.414 E3.28620
G1 X91.838 Y92.811 E3.34343
G1 X91.838 Y92.189 E3.40067
G1 X91.992 Y91.586 E3.45791
G1 X92.292 Y91.041 E3.51515
G1 X92.718 Y90.587 E3.57239
G1 X93.244 Y90.254 E3.62963
G1 X93.836 Y90.061 E3.68687
G1 X94.428 Y90.024 E3.74146
G1 X95.062 Y90.136 E3.80066
G1 X95.631 Y90.404 E3.85853
G1 X96.110 Y90.801 E3.91576
G1 X96.476 Y91.304 E3.97300
G1 X96.705 Y91.883 E4.03024
G1 X96.783 Y92.500 E4.08748
G1 X96.705 Y93.117 E4.14472
G1 X96.476 Y93.696 E4.20196
G1 X96.110 Y94.199 E4.25920
G1 X95.631 Y94.596 E4.31644
G1 X95.068 Y94.861 E4.37367
G1 X94.516 Y94.966 E4.42539
G1 X94.417 Y94.349 F7800.000
G1 X93.954 Y94.320 E4.46811 F630.000
G1 X93.512 Y94.176 E4.51083
G1 X93.120 Y93.928 E4.55354
G1 X92.802 Y93.589 E4.59626
G1 X92.578 Y93.182 E4.63898
G1 X92.463 Y92.732 E4.68170
G1 X92.463 Y92.268 E4.72441
G1 X92.578 Y91.818 E4.76713
G1 X92.802 Y91.411 E4.80985
G1 X93.120 Y91.072 E4.85256
G1 X93.512 Y90.824 E4.89528
G1 X93.954 Y90.680 E4.93800
G1 X94.393 Y90.652 E4.97847
G1 X94.871 Y90.737 E5.02315
G1 X95.294 Y90.936 E5.06609
G1 X95.651 Y91.232 E5.10881
G1 X95.924 Y91.607 E5.15152
G1 X96.095 Y92.039 E5.19424
G1 X96.154 Y92.500 E5.23696
G1 X96.095 Y92.961 E5.27967
G1 X95.924 Y93.393 E5.32239
G1 X95.651 Y93.768 E5.36511
G1 X95.294 Y94.064 E5.40783
G1 X94.873 Y94.262 E5.45054
G1 X94.476 Y94.338 E5.48774
G1 X94.224 Y94.700 F7800.000
G1 E2.48774 F2400.00000
G92 E0
G1 X88.047 Y89.199 F7800.000
G1 E3.00000 F2400.00000
G1 X87.567 Y89.596 E3.05723 F630.000
G1 X87.004 Y89.861 E3.11448
G1 X86.393 Y89.978 E3.17171
G1 X85.772 Y89.939 E3.22895
G1 X85.180 Y89.746 E3.28619
G1 X84.654 Y89.413 E3.34342
G1 X84.228 Y88.959 E3.40065
G1 X83.929 Y88.414 E3.45790
G1 X83.774 Y87.811 E3.51514
G1 X83.774 Y87.189 E3.57238
G1 X83.929 Y86.586 E3.62962
G1 X84.228 Y86.041 E3.68687
G1 X84.654 Y85.587 E3.74410
G1 X85.180 Y85.254 E3.80133
G1 X85.772 Y85.061 E3.85857
G1 X86.364 Y85.024 E3.91317
G1 X86.998 Y85.136 E3.97236
G1 X87.567 Y85.404 E4.03023
G1 X88.047 Y85.801 E4.08746
G1 X88.412 Y86.304 E4.14471
G1 X88.642 Y86.883 E4.20196
G1 X88.719 Y87.500 E4.25919
G1 X88.642 Y88.117 E4.31642
G1 X88.412 Y88.696 E4.37367
G1 X88.082 Y89.151 E4.42539
G1 X87.587 Y88.768 F7800.000
G1 X87.230 Y89.064 E4.46811 F630.000
G1 X86.809 Y89.262 E4.51082
G1 X86.353 Y89.349 E4.55354
G1 X85.890 Y89.320 E4.59626
G1 X85.448 Y89.176 E4.63897
G1 X85.056 Y88.928 E4.68168
G1 X84.738 Y88.589 E4.72440
G1 X84.514 Y88.182 E4.76712
G1 X84.399 Y87.732 E4.80984
G1 X84.399 Y87.268 E4.85256
G1 X84.514 Y86.818 E4.89528
G1 X84.738 Y86.411 E4.93800
G1 X85.056 Y86.072 E4.98071
G1 X85.448 Y85.824 E5.02342
G1 X85.890 Y85.680 E5.06614
G1 X86.329 Y85.652 E5.10662
G1 X86.807 Y85.737 E5.15129
G1 X87.230 Y85.936 E5.19423
G1 X87.587 Y86.232 E5.23694
G1 X87.860 Y86.607 E5.27967
G1 X88.031 Y87.039 E5.32239
G1 X88.090 Y87.500 E5.36510
G1 X88.031 Y87.961 E5.40781
G1 X87.860 Y88.393 E5.45053
G1 X87.623 Y88.720 E5.48774
G1 X87.687 Y89.156 F7800.000
G1 E2.48774 F2400.00000
G92 E0
G1 X97.576 Y93.475 F7800.000
G1 E3.00000 F2400.00000
G1 X97.576 Y76.525 E4.55900 F2520.000
G1 X106.026 Y76.525 E5.33619
G1 X106.026 Y93.475 E6.89519
G1 X97.636 Y93.475 E7.66686
G1 X98.201 Y92.850 F7800.000
G1 X98.201 Y77.150 E9.11091 F1260.000
G1 X105.401 Y77.150 E9.77315
G1 X105.401 Y92.850 E11.21720
G1 X98.261 Y92.850 E11.87392
G1 X97.801 Y92.850 F7800.000
G1 X106.838 Y92.811 F7800.000
G1 X106.838 Y92.189 E11.93116 F630.000
G1 X106.992 Y91.586 E11.98839
G1 X107.292 Y91.041 E12.04563
G1 X107.718 Y90.587 E12.10287
G1 X108.244 Y90.254 E12.16011
G1 X108.836 Y90.061 E12.21735
G1 X109.428 Y90.024 E12.27195
G1 X110.062 Y90.136 E12.33114
G1 X110.631 Y90.404 E12.38901
G1 X111.110 Y90.801 E12.44625
G1 X111.476 Y91.304 E12.50349
G1 X111.705 Y91.883 E12.56073
G1 X111.783 Y92.500 E12.61796
G1 X111.705 Y93.117 E12.67520
G1 X111.476 Y93.696 E12.73244
G1 X111.110 Y94.199 E12.78968
G1 X110.631 Y94.596 E12.84692
G1 X110.068 Y94.861 E12.90416
G1 X109.457 Y94.978 E12.96140
G1 X108.836 Y94.939 E13.01864
G1 X108.244 Y94.746 E13.07587
G1 X107.718 Y94.413 E13.13311
G1 X107.292 Y93.959 E13.19035
G1 X106.992 Y93.414 E13.24759
G1 X106.853 Y92.869 E13.29931
G1 X107.463 Y92.732 F7800.000
G1 X107.463 Y92.268 E13.34203 F630.000
G1 X107.578 Y91.818 E13.38474
G1 X107.802 Y91.411 E13.42746
G1 X108.120 Y91.072 E13.47018
G1 X108.512 Y90.824 E13.51290
G1 X108.954 Y90.680 E13.55561
G1 X109.393 Y90.652 E13.59609
G1 X109.871 Y90.737 E13.64076
G1 X110.294 Y90.936 E13.68370
G1 X110.651 Y91.232 E13.72642
G1 X110.924 Y91.607 E13.76914
G1 X111.095 Y92.039 E13.81186
G1 X111.154 Y92.500 E13.85457
G1 X111.095 Y92.961 E13.89729
G1 X110.924 Y93.393 E13.94001
G1 X110.651 Y93.768 E13.98272
G1 X110.294 Y94.064 E14.02544
G1 X109.873 Y94.262 E14.06816
G1 X109.417 Y94.349 E14.11087
G1 X108.954 Y94.320 E14.15359
G1 X108.512 Y94.176 E14.19631
G1 X108.120 Y93.928 E14.23903
G1 X107.802 Y93.589 E14.28174
G1 X107.578 Y93.182 E14.32446
G1 X107.478 Y92.790 E14.36166
G1 X107.101 Y92.562 F7800.000
G1 X108.836 Y97.561 F7800.000
G1 X109.428 Y97.524 E14.41626 F630.000
G1 X110.062 Y97.636 E14.47545
G1 X110.631 Y97.904 E14.53332
G1 X111.110 Y98.301 E14.59056
G1 X111.476 Y98.804 E14.64779
G1 X111.705 Y99.383 E14.70503
G1 X111.783 Y100.000 E14.76227
G1 X111.705 Y100.617 E14.81951
G1 X111.476 Y101.196 E14.87675
G1 X111.110 Y101.699 E14.93399
G1 X110.631 Y102.096 E14.99123
G1 X110.068 Y102.361 E15.04847
G1 X109.457 Y102.478 E15.10570
G1 X108.836 Y102.439 E15.16294
G1 X108.244 Y102.246 E15.22018
G1 X107.718 Y101.913 E15.27742
G1 X107.292 Y101.459 E15.33466
G1 X106.992 Y100.914 E15.39190
G1 X106.838 Y100.311 E15.44914
G1 X106.838 Y99.689 E15.50638
G1 X106.992 Y99.086 E15.56362
G1 X107.292 Y98.541 E15.62085
G1 X107.718 Y98.087 E15.67809
G1 X108.244 Y97.754 E15.73533
G1 X108.778 Y97.580 E15.78705
G1 X108.954 Y98.180 F7800.000
G1 X109.393 Y98.152 E15.82753 F630.000
G1 X109.871 Y98.237 E15.87220
G1 X110.294 Y98.436 E15.91514
G1 X110.651 Y98.732 E15.95786
G1 X110.924 Y99.107 E16.00058
G1 X111.095 Y99.539 E16.04330
G1 X111.154 Y100.000 E16.08601
G1 X111.095 Y100.461 E16.12873
G1 X110.924 Y100.893 E16.17145
G1 X110.651 Y101.268 E16.21416
G1 X110.294 Y101.564 E16.25688
G1 X109.873 Y101.762 E16.29960
G1 X109.417 Y101.849 E16.34231
G1 X108.954 Y101.820 E16.38503
G1 X108.512 Y101.676 E16.42775
G1 X108.120 Y101.428 E16.47047
G1 X107.802 Y101.089 E16.51318
G1 X107.578 Y100.682 E16.55590
G1 X107.463 Y100.232 E16.59862
G1 X107.463 Y99.768 E16.64133
G1 X107.578 Y99.318 E16.68405
G1 X107.802 Y98.911 E16.72677
G1 X108.120 Y98.572 E16.76948
G1 X108.512 Y98.324 E16.81220
G1 X108.897 Y98.199 E16.84940
G1 X109.101 Y97.808 F7800.000
G1 X112.947 Y99.086 F7800.000
G1 X113.247 Y98.541 E16.90664 F630.000
G1 X113.673 Y98.087 E16.96388
G1 X114.198 Y97.754 E17.02112
G1 X114.790 Y97.561 E17.07836
G1 X115.383 Y97.524 E17.13296
G1 X116.016 Y97.636 E17.19216
G1 X116.586 Y97.904 E17.25002
G1 X117.065 Y98.301 E17.30726
G1 X117.431 Y98.804 E17.36450
G1 X117.660 Y99.383 E17.42173
G1 X117.738 Y100.000 E17.47897
G1 X117.660 Y100.617 E17.53622
G1 X117.431 Y101.196 E17.59345
G1 X117.065 Y101.699 E17.65069
G1 X116.586 Y102.096 E17.70793
G1 X116.023 Y102.361 E17.76516
G1 X115.411 Y102.478 E17.82240
G1 X114.790 Y102.439 E17.87964
G1 X114.198 Y102.246 E17.93688
G1 X113.667 Y101.909 E17.99479
G1 X113.246 Y101.458 E18.05155
G1 X112.947 Y100.914 E18.10862
G1 X112.792 Y100.311 E18.16586
G1 X112.792 Y99.689 E18.22309
G1 X112.932 Y99.144 E18.27481
G1 X113.533 Y99.318 F7800.000
G1 X113.756 Y98.911 E18.31752 F630.000
G1 X114.074 Y98.572 E18.36024
G1 X114.466 Y98.324 E18.40296
G1 X114.908 Y98.180 E18.44568
G1 X115.347 Y98.152 E18.48616
G1 X115.826 Y98.237 E18.53083
G1 X116.248 Y98.436 E18.57377
G1 X116.606 Y98.732 E18.61649
G1 X116.879 Y99.107 E18.65920
G1 X117.050 Y99.539 E18.70192
G1 X117.108 Y100.000 E18.74464
G1 X117.050 Y100.461 E18.78736
G1 X116.879 Y100.893 E18.83007
G1 X116.606 Y101.268 E18.87279
G1 X116.248 Y101.564 E18.91550
G1 X115.828 Y101.762 E18.95822
G1 X115.372 Y101.849 E19.00093
G1 X114.908 Y101.820 E19.04366
G1 X114.466 Y101.676 E19.08637
G1 X114.069 Y101.424 E19.12966
G1 X113.756 Y101.088 E19.17189
G1 X113.533 Y100.682 E19.21454
G1 X113.417 Y100.232 E19.25726
G1 X113.417 Y99.768 E19.29997
G1 X113.518 Y99.376 E19.33717
G1 X113.298 Y98.994 F7800.000
G1 X110.631 Y105.404 F7800.000
G1 X111.110 Y105.801 E19.39441 F630.000
G1 X111.476 Y106.304 E19.45165
G1 X111.705 Y106.883 E19.50889
G1 X111.783 Y107.500 E19.56613
G1 X111.705 Y108.117 E19.62336
G1 X111.476 Y108.696 E19.68061
G1 X111.110 Y109.199 E19.73784
G1 X110.631 Y109.596 E19.79508
G1 X110.068 Y109.861 E19.85232
G1 X109.457 Y109.978 E19.90956
G1 X108.836 Y109.939 E19.96680
G1 X108.244 Y109.746 E20.02404
G1 X107.718 Y109.413 E20.08128
G1 X107.292 Y108.959 E20.13852
G1 X106.992 Y108.414 E20.19575
G1 X106.838 Y107.811 E20.25299
G1 X106.838 Y107.189 E20.31023
G1 X106.992 Y106.586 E20.36747
G1 X107.292 Y106.041 E20.42471
G1 X107.718 Y105.587 E20.48195
G1 X108.244 Y105.254 E20.53919
G1 X108.836 Y105.061 E20.59643
G1 X109.428 Y105.024 E20.65102
G1 X110.062 Y105.136 E20.71022
G1 X110.577 Y105.378 E20.76257
G1 X110.294 Y105.936 F7800.000
G1 X110.651 Y106.232 E20.80528 F630.000
G1 X110.924 Y106.607 E20.84800
G1 X111.095 Y107.039 E20.89072
G1 X111.154 Y107.500 E20.93343
G1 X111.095 Y107.961 E20.97615
G1 X110.924 Y108.393 E21.01887
G1 X110.651 Y108.768 E21.06159
G1 X110.294 Y109.064 E21.10430
G1 X109.873 Y109.262 E21.14702
G1 X109.417 Y109.349 E21.18974
G1 X108.954 Y109.320 E21.23245
G1 X108.512 Y109.176 E21.27517
G1 X108.120 Y108.928 E21.31789
G1 X107.802 Y108.589 E21.36060
G1 X107.578 Y108.182 E21.40332
G1 X107.463 Y107.732 E21.44604
G1 X107.463 Y107.268 E21.48875
G1 X107.578 Y106.818 E21.53147
G1 X107.802 Y106.411 E21.57419
G1 X108.120 Y106.072 E21.61691
G1 X108.512 Y105.824 E21.65962
G1 X108.954 Y105.680 E21.70234
G1 X109.393 Y105.652 E21.74282
