; generated by Slic3r 1.2.9 on 2015-12-08 at 11:57:13

; external perimeters extrusion width = 0.60mm
; perimeters extrusion width = 1.01mm
; infill extrusion width = 1.01mm
; solid infill extrusion width = 1.01mm
; top infill extrusion width = 1.01mm

M107
M190 S50 ; set bed temperature
M104 S210 ; set temperature
G28 ; home all axes
G1 Z5 F5000 ; lift nozzle

M109 S210 ; wait for temperature to be reached
G21 ; set units to millimeters
G90 ; use absolute coordinates
M82 ; use absolute distances for extrusion
G92 E0
G1 Z0.350 F7800.000
G1 E-4.00000 F2400.00000
G92 E0
G1 X47.151 Y58.366 F7800.000
G1 E4.00000 F2400.00000
G1 X50.301 Y57.469 E4.30120 F2520.000
G1 X129.335 Y55.295 E11.57330
G1 X149.517 Y55.293 E13.42961
G1 X151.776 Y55.690 E13.64056
G1 X153.764 Y56.833 E13.85150 F2520.000
G1 X155.243 Y58.586 E14.06245
G1 X156.036 Y60.738 E14.27340
G1 X156.142 Y61.918 E14.38235
G1 X156.142 Y67.956 E14.93773
G1 X155.745 Y135.181 E21.12101
G1 X155.700 Y135.764 E21.17483
G1 X155.614 Y136.354 E21.22966
G1 X155.403 Y137.236 E21.31310
G1 X155.298 Y137.572 E21.34542
G1 X155.058 Y138.201 E21.40735
G1 X154.736 Y138.870 E21.47569
G1 X154.587 Y139.137 E21.50374
G1 X154.112 Y139.870 E21.58411
G1 X153.578 Y140.531 E21.66224
G1 X152.943 Y141.178 E21.74564
G1 X152.243 Y141.750 E21.82877
G1 X151.383 Y142.311 E21.92322
G1 X150.722 Y142.647 E21.99150
G1 X150.312 Y142.822 E22.03242
G1 X149.453 Y143.113 E22.11584
G1 X148.646 Y143.298 E22.19200
G1 X147.874 Y143.400 E22.26366
G1 X147.197 Y143.434 E22.32596
G1 X70.627 Y144.207 E29.36906
G1 X54.560 Y144.207 E30.84686
G1 X53.965 Y144.184 E30.90167
G1 X53.006 Y144.063 E30.99058
G1 X52.281 Y143.898 E31.05893
G1 X51.365 Y143.590 E31.14786
G1 X50.488 Y143.182 E31.23681
G1 X50.292 Y143.074 E31.25744
G1 X49.480 Y142.549 E31.34637
G1 X48.899 Y142.086 E31.41471
G1 X48.206 Y141.411 E31.50363
G1 X47.594 Y140.663 E31.59257
G1 X47.069 Y139.851 E31.68149
G1 X46.960 Y139.655 E31.70213
G1 X46.552 Y138.778 E31.79107
G1 X46.261 Y137.919 E31.87448
G1 X46.079 Y137.137 E31.94836
G1 X45.959 Y136.178 E32.03727
G1 X43.862 Y70.302 E38.09944
G1 X43.858 Y64.092 E38.67063
G1 X44.255 Y61.833 E38.88157
G1 X45.399 Y59.845 E39.09252
G1 X47.082 Y58.424 E39.29519
G1 E35.29519 F2400.00000
G92 E0
G1 X148.156 Y128.284 F7800.000
G1 E4.00000 F2400.00000
G1 X148.143 Y134.937 E4.61192 F2520.000
G1 X148.052 Y135.252 E4.64208
G1 X147.996 Y135.350 E4.65245
G1 X147.835 Y135.547 E4.67589
G1 X147.581 Y135.725 E4.70439
G1 X147.450 Y135.781 E4.71754
G1 X147.252 Y135.825 E4.73615
G1 X147.100 Y135.834 E4.75018
G1 X131.158 Y135.834 E6.21650
G1 X130.903 Y135.807 E6.24010
G1 X130.686 Y135.731 E6.26118
G1 X130.586 Y135.676 E6.27174
G1 X130.492 Y135.609 E6.28230
G1 X130.330 Y135.447 E6.30338
G1 X130.208 Y135.253 E6.32447
G1 X130.164 Y135.147 E6.33502
G1 X130.118 Y134.950 E6.35365
G1 X130.107 Y128.284 E6.96676
G1 X134.156 Y128.285 E7.33915
G1 X134.156 Y130.347 E7.52884
G1 X134.214 Y131.088 E7.59713
G1 X134.389 Y131.819 E7.66626
G1 X134.533 Y132.212 E7.70483
G1 X134.705 Y132.585 E7.74263
G1 X135.103 Y133.235 E7.81268
G1 X135.591 Y133.807 E7.88182
G1 X135.899 Y134.093 E7.92048
G1 X136.230 Y134.352 E7.95914
G1 X136.871 Y134.745 E8.02828
G1 X137.574 Y135.036 E8.09833
G1 X137.987 Y135.153 E8.13780
G1 X138.721 Y135.269 E8.20610
G1 X139.130 Y135.285 E8.24380
G1 X139.540 Y135.269 E8.28150
G1 X140.274 Y135.153 E8.34981
G1 X140.686 Y135.036 E8.38927
G1 X141.390 Y134.745 E8.45935
G1 X142.056 Y134.336 E8.53120
G1 X142.650 Y133.829 E8.60304
G1 X143.145 Y133.250 E8.67312
G1 X143.373 Y132.909 E8.71082
G1 X143.573 Y132.551 E8.74852
G1 X143.865 Y131.847 E8.81860
G1 X144.047 Y131.088 E8.89044
G1 X144.105 Y130.347 E8.95875
G1 X144.105 Y128.284 E9.14854
G1 X148.066 Y128.284 E9.51279
G1 X148.780 Y127.659 F7800.000
G1 X148.780 Y134.796 E10.16923 F1260.000
G1 X148.763 Y135.030 E10.19085
G1 X148.701 Y135.301 E10.21639
G1 X148.620 Y135.517 E10.23761
G1 X148.514 Y135.704 E10.25737
G1 X148.280 Y135.990 E10.29139
G1 X148.107 Y136.133 E10.31202
G1 X147.872 Y136.281 E10.33753
G1 X147.660 Y136.371 E10.35876
G1 X147.331 Y136.446 E10.38977
G1 X147.119 Y136.459 E10.40925
G1 X130.946 Y136.448 E11.89687
G1 X130.763 Y136.417 E11.91389
G1 X130.415 Y136.295 E11.94786
G1 X130.102 Y136.099 E11.98183
G1 X129.841 Y135.838 E12.01581
G1 X129.644 Y135.525 E12.04978
G1 X129.574 Y135.354 E12.06679
G1 X129.493 Y135.003 E12.09988
G1 X129.481 Y127.659 E12.77538
G1 X134.115 Y127.660 E13.20160
G1 X134.298 Y127.684 E13.21857
G1 X134.454 Y127.749 E13.23410
G1 X134.588 Y127.852 E13.24964
G1 X134.691 Y127.986 E13.26517
G1 X134.755 Y128.142 E13.28071
G1 X134.780 Y128.332 E13.29837
G1 X134.780 Y130.323 E13.48148
G1 X134.833 Y130.990 E13.54300
G1 X134.988 Y131.638 E13.60429
G1 X135.111 Y131.974 E13.63719
G1 X135.257 Y132.290 E13.66927
G1 X135.610 Y132.867 E13.73143
G1 X136.043 Y133.374 E13.79271
G1 X136.305 Y133.617 E13.82565
G1 X136.587 Y133.838 E13.85859
G1 X137.155 Y134.186 E13.91987
G1 X137.779 Y134.445 E13.98203
G1 X138.122 Y134.541 E14.01471
G1 X138.782 Y134.646 E14.07624
G1 X139.130 Y134.659 E14.10829
G1 X139.479 Y134.646 E14.14035
G1 X140.139 Y134.541 E14.20187
G1 X140.481 Y134.445 E14.23456
G1 X141.106 Y134.186 E14.29672
G1 X141.688 Y133.829 E14.35952
G1 X142.207 Y133.386 E14.42232
G1 X142.646 Y132.872 E14.48449
G1 X142.840 Y132.582 E14.51654
G1 X143.010 Y132.278 E14.54859
G1 X143.269 Y131.654 E14.61075
G1 X143.428 Y130.990 E14.67355
G1 X143.480 Y130.323 E14.73508
G1 X143.480 Y128.332 E14.91819
G1 X143.505 Y128.143 E14.93574
G1 X143.574 Y127.981 E14.95195
G1 X143.673 Y127.852 E14.96690
G1 X143.807 Y127.749 E14.98244
G1 X143.963 Y127.684 E14.99797
G1 X144.153 Y127.659 E15.01563
G1 X148.690 Y127.659 E15.43294
G1 X148.480 Y128.179 F7800.000
G1 X147.777 Y128.968 F7800.000
G1 X147.472 Y128.663 E15.47270 F840.000
G1 X146.587 Y128.663 E15.55426
G1 X147.777 Y129.853 E15.70937
G1 X147.777 Y130.738 E15.79093
G1 X145.701 Y128.663 E16.06138
G1 X144.816 Y128.663 E16.14295
G1 X147.777 Y131.624 E16.52875
G1 X147.777 Y132.509 E16.61031
G1 X144.484 Y129.216 E17.03940
G1 X144.484 Y130.101 E17.12096
G1 X147.777 Y133.394 E17.55005
G1 X147.777 Y134.279 E17.63161
G1 X144.429 Y130.931 E18.06784
G1 X144.271 Y131.659 E18.13642
G1 X147.730 Y135.117 E18.58705
G1 X147.183 Y135.456 E18.64630
G1 X144.038 Y132.311 E19.05603
G1 X143.752 Y132.910 E19.11717
G1 X146.298 Y135.456 E19.44893
G1 X145.412 Y135.456 E19.53050
G1 X143.403 Y133.447 E19.79228
G1 X142.996 Y133.924 E19.85013
G1 X144.527 Y135.456 E20.04970
G1 X143.642 Y135.456 E20.13126
G1 X142.538 Y134.352 E20.27513
G1 X142.443 Y135.142 E20.34845
G1 X142.757 Y135.456 E20.38937
G1 X142.011 Y135.158 F7800.000
G1 X141.632 Y135.263 E20.42560 F840.000
G1 X140.827 Y135.423 E20.50108
G1 X140.185 Y135.502 E20.56056
G1 X138.076 Y135.502 F7800.000
G1 X137.434 Y135.423 E20.62004 F840.000
G1 X136.630 Y135.263 E20.69548
G1 X136.249 Y135.157 E20.73182
G1 X135.683 Y134.545 F7800.000
G1 X135.977 Y134.839 E20.77156 F840.000
G1 X135.674 Y135.453 E20.83696
G1 X130.489 Y130.268 E21.53716
G1 X130.487 Y129.349 E21.62491
G1 X134.899 Y133.761 E22.22067
G1 X134.756 Y135.452 F7800.000
G1 X130.490 Y131.187 E22.79664 F840.000
G1 X130.492 Y132.106 E22.88438
G1 X133.837 Y135.451 E23.33611
G1 X132.919 Y135.450 E23.42382
G1 X130.493 Y133.025 E23.75131
G1 X130.495 Y133.944 E23.83906
G1 X132.000 Y135.449 E24.04231
G1 X131.022 Y135.388 E24.13593
G1 X130.552 Y134.918 E24.19935
G1 X133.992 Y131.936 F7800.000
G1 X130.719 Y128.663 E24.64137 F840.000
G1 X131.637 Y128.663 E24.72899
G1 X133.803 Y130.829 E25.02152
G1 X133.777 Y129.886 E25.11163
G1 X132.554 Y128.663 E25.27674
G1 X133.472 Y128.664 E25.36436
G1 X133.777 Y128.969 E25.40557
G1 Z0.650 F7800.000
G1 E21.40557 F2400.00000
G92 E0
G1 X138.210 Y135.282 F7800.000
G1 E4.00000 F2400.00000
G1 X138.143 Y135.770 E4.05858 F900.000
G1 X131.160 Y135.770 E4.88894
G1 X131.023 Y135.762 E4.90521
G1 X130.814 Y135.715 E4.93075
G1 X130.532 Y135.559 E4.96896
G1 X130.318 Y135.320 E5.00718
G1 X130.225 Y135.126 E5.03272
G1 X130.182 Y134.945 E5.05489
G1 X130.171 Y128.349 E5.83917
G1 X134.091 Y128.351 E6.30531
G1 X134.091 Y130.350 E6.54300
G1 X134.150 Y131.098 E6.63221
G1 X134.330 Y131.847 E6.72385
G1 X134.474 Y132.238 E6.77334
G1 X134.648 Y132.616 E6.82282
G1 X135.051 Y133.273 E6.91447
G1 X135.552 Y133.859 E7.00611
G1 X135.857 Y134.142 E7.05560
G1 X136.184 Y134.399 E7.10508
G1 X136.841 Y134.802 E7.19673
G1 X137.553 Y135.097 E7.28837
G1 X138.124 Y135.258 E7.35885
G1 X140.050 Y135.282 F7800.000
G1 X140.708 Y135.097 E7.44003 F900.000
G1 X141.420 Y134.802 E7.53167
G1 X142.094 Y134.388 E7.62575
G1 X142.696 Y133.875 E7.71983
G1 X143.196 Y133.289 E7.81148
G1 X143.428 Y132.942 E7.86096
G1 X143.631 Y132.579 E7.91045
G1 X143.926 Y131.867 E8.00209
G1 X144.111 Y131.098 E8.09617
G1 X144.169 Y130.350 E8.18539
G1 X144.169 Y128.348 E8.42341
G1 X148.091 Y128.348 E8.88975
G1 X148.091 Y134.754 E9.65148
G1 X148.066 Y134.996 E9.68032
G1 X147.977 Y135.246 E9.71190
G1 X147.896 Y135.382 E9.73077
G1 X147.792 Y135.498 E9.74925
G1 X147.622 Y135.626 E9.77458
G1 X147.378 Y135.732 E9.80619
G1 X147.093 Y135.770 E9.84040
G1 X140.118 Y135.770 E10.66979
G1 X140.063 Y135.371 E10.71767
G1 E6.71767 F2400.00000
G92 E0
G1 X143.782 Y127.705 F7800.000
G1 E4.00000 F2400.00000
G1 X143.950 Y127.636 E4.01230 F1800.000
G1 X144.150 Y127.609 E4.02595
G1 X148.830 Y127.609 E4.34222
G1 X148.830 Y134.793 E4.82770
G1 X148.792 Y135.160 E4.85261
G1 X148.649 Y135.562 E4.88144
G1 X148.494 Y135.821 E4.90185
G1 X148.296 Y136.045 E4.92205
G1 X147.996 Y136.269 E4.94733
G1 X147.608 Y136.438 E4.97595
G1 X147.369 Y136.491 E4.99247
G1 X147.120 Y136.509 E5.00939
G1 X131.139 Y136.509 E6.08930
G1 X130.752 Y136.466 E6.11558
G1 X130.393 Y136.340 E6.14130
G1 X130.071 Y136.138 E6.16702
G1 X129.802 Y135.869 E6.19273
G1 X129.691 Y135.713 E6.20561
G1 X129.526 Y135.370 E6.23133
G1 X129.443 Y135.008 E6.25649
G1 X129.431 Y127.609 E6.75643
G1 X134.132 Y127.612 E7.07413
G1 X134.311 Y127.636 E7.08631
G1 X134.479 Y127.705 E7.09861
G1 X134.624 Y127.816 E7.11091
G1 X134.734 Y127.960 E7.12322
G1 X134.804 Y128.129 E7.13552
G1 X134.830 Y128.329 E7.14916
G1 X134.830 Y130.321 E7.28378
G1 X134.882 Y130.982 E7.32859
G1 X135.039 Y131.632 E7.37379
G1 X135.158 Y131.955 E7.39701
G1 X135.301 Y132.267 E7.42023
G1 X135.651 Y132.837 E7.46543
G1 X136.085 Y133.346 E7.51064
G1 X136.338 Y133.579 E7.53385
G1 X136.607 Y133.792 E7.55707
G1 X137.178 Y134.141 E7.60228
G1 X137.796 Y134.397 E7.64748
G1 X138.132 Y134.492 E7.67110
G1 X138.787 Y134.596 E7.71591
G1 X139.130 Y134.609 E7.73912
G1 X139.474 Y134.596 E7.76234
G1 X140.129 Y134.492 E7.80714
G1 X140.465 Y134.397 E7.83076
G1 X141.083 Y134.141 E7.87596
G1 X141.658 Y133.789 E7.92157
G1 X142.172 Y133.350 E7.96718
G1 X142.606 Y132.842 E8.01238
G1 X142.797 Y132.556 E8.03560
G1 X142.965 Y132.256 E8.05882
G1 X143.221 Y131.638 E8.10402
G1 X143.378 Y130.982 E8.14963
G1 X143.430 Y130.321 E8.19444
G1 X143.430 Y128.329 E8.32905
G1 X143.457 Y128.129 E8.34270
G1 X143.526 Y127.960 E8.35500
G1 X143.637 Y127.816 E8.36730
G1 X143.710 Y127.760 E8.37352
G1 X143.935 Y127.803 F7800.000
G1 X145.190 Y128.929 F7800.000
G1 X144.751 Y129.369 E8.44782 F1200.000
G1 X144.740 Y130.719 E8.60905
G1 X146.529 Y128.929 E8.91134
G1 X147.510 Y129.287 E9.03606
G1 X144.459 Y132.339 E9.55146
G1 X142.948 Y135.189 F7800.000
G1 X147.510 Y130.626 E10.32217 F1200.000
G1 X147.510 Y131.965 E10.48209
G1 X144.286 Y135.189 E11.02665
G1 X145.625 Y135.189 E11.18657
G1 X147.510 Y133.304 E11.50497
G1 X147.481 Y134.672 E11.66842
G1 X146.991 Y135.162 E11.75110
G1 X135.390 Y135.186 F7800.000
G1 X135.824 Y134.752 E11.83287 F1200.000
G1 X135.047 Y134.036 E11.97363
G1 X133.898 Y135.185 E12.18996
G1 X132.407 Y135.183 E12.38864
G1 X134.404 Y133.186 E12.76491
G1 X133.900 Y132.196 E12.91279
G1 X130.919 Y135.177 E13.47432
G1 X130.761 Y133.842 E13.65337
G1 X133.578 Y131.026 E14.18397
G1 X133.510 Y129.600 E14.37410
G1 X130.759 Y132.352 E14.89247
G1 X130.756 Y130.861 E15.09104
G1 X132.686 Y128.931 E15.45455
G1 X131.193 Y128.930 E15.65333
G1 X130.754 Y129.370 E15.73618
G1 Z0.950 F7800.000
G1 E11.73618 F2400.00000
G92 E0
G1 X144.169 Y128.348 F7800.000
G1 E4.00000 F2400.00000
G1 X148.091 Y128.348 E4.46634 F900.000
G1 X148.091 Y134.820 E5.23581
G1 X148.048 Y135.144 E5.27469
G1 X147.951 Y135.358 E5.30264
G1 X147.839 Y135.509 E5.32505
G1 X147.683 Y135.642 E5.34943
G1 X147.525 Y135.732 E5.37110
G1 X146.722 Y136.001 E5.47174
G1 X146.723 Y135.770 E5.49922
G1 X140.118 Y135.770 E6.28458
G1 X140.050 Y135.282 E6.34316
G1 X140.708 Y135.097 E6.42433
G1 X141.420 Y134.802 E6.51598
G1 X142.094 Y134.388 E6.61006
G1 X142.696 Y133.875 E6.70414
G1 X143.196 Y133.289 E6.79579
G1 X143.428 Y132.942 E6.84527
G1 X143.631 Y132.579 E6.89476
G1 X143.926 Y131.867 E6.98640
G1 X144.111 Y131.098 E7.08048
G1 X144.169 Y130.350 E7.16969
G1 X144.169 Y128.438 E7.39701
G1 E3.39701 F2400.00000
G92 E0
G1 X138.210 Y135.282 F7800.000
G1 E4.00000 F2400.00000
G1 X138.143 Y135.770 E4.05858 F900.000
G1 X131.559 Y135.770 E4.84144
G1 X131.557 Y135.971 E4.86533
G1 X130.836 Y135.772 E4.95419
G1 X130.676 Y135.706 E4.97484
G1 X130.515 Y135.599 E4.99788
G1 X130.335 Y135.400 E5.02978
G1 X130.242 Y135.226 E5.05318
G1 X130.193 Y135.055 E5.07429
G1 X130.169 Y134.824 E5.10191
G1 X130.169 Y128.349 E5.87185
G1 X134.091 Y128.353 E6.33819
G1 X134.091 Y130.350 E6.57568
G1 X134.150 Y131.096 E6.66472
G1 X134.317 Y131.801 E6.75081
G1 X134.472 Y132.233 E6.80544
G1 X134.648 Y132.616 E6.85550
G1 X135.051 Y133.273 E6.94714
G1 X135.552 Y133.859 E7.03879
G1 X135.857 Y134.142 E7.08827
G1 X136.184 Y134.399 E7.13776
G1 X136.841 Y134.802 E7.22940
G1 X137.553 Y135.097 E7.32104
G1 X138.124 Y135.258 E7.39152
G1 X132.290 Y136.509 F7800.000
G1 X132.285 Y137.009 E7.42531 F1800.000
G1 X130.984 Y137.009 E7.51322
G1 X130.991 Y136.582 E7.54211
G1 X130.596 Y136.473 E7.56982
G1 X130.327 Y136.361 E7.58952
G1 X130.054 Y136.180 E7.61169
G1 X129.895 Y136.031 E7.62636
G1 X129.728 Y135.825 E7.64430
G1 X129.548 Y135.485 E7.67031
G1 X129.464 Y135.197 E7.69054
G1 X129.430 Y134.862 E7.71332
G1 X129.430 Y127.609 E8.20340
G1 X134.145 Y127.614 E8.52200
G1 X134.311 Y127.636 E8.53330
G1 X134.479 Y127.705 E8.54560
G1 X134.624 Y127.816 E8.55790
G1 X134.734 Y127.960 E8.57021
G1 X134.804 Y128.129 E8.58251
G1 X134.830 Y128.329 E8.59615
G1 X134.830 Y130.321 E8.73077
G1 X134.882 Y130.982 E8.77555
G1 X135.027 Y131.590 E8.81783
G1 X135.157 Y131.954 E8.84390
G1 X135.301 Y132.267 E8.86721
G1 X135.651 Y132.837 E8.91242
G1 X136.085 Y133.346 E8.95762
G1 X136.338 Y133.579 E8.98084
G1 X136.607 Y133.792 E9.00406
G1 X137.178 Y134.141 E9.04926
G1 X137.796 Y134.397 E9.09447
G1 X138.132 Y134.492 E9.11808
G1 X138.787 Y134.596 E9.16289
G1 X139.132 Y134.609 E9.18620
G1 X139.517 Y134.591 E9.21227
G1 X140.129 Y134.492 E9.25415
G1 X140.465 Y134.397 E9.27774
G1 X141.083 Y134.141 E9.32294
G1 X141.658 Y133.789 E9.36855
G1 X142.172 Y133.350 E9.41416
G1 X142.606 Y132.842 E9.45936
G1 X142.797 Y132.556 E9.48258
G1 X142.965 Y132.256 E9.50580
G1 X143.221 Y131.638 E9.55100
G1 X143.378 Y130.982 E9.59661
G1 X143.430 Y130.321 E9.64142
G1 X143.430 Y128.329 E9.77603
G1 X143.456 Y128.133 E9.78936
G1 X143.545 Y127.937 E9.80394
G1 X143.637 Y127.816 E9.81421
G1 X143.782 Y127.705 E9.82651
G1 X143.950 Y127.636 E9.83882
G1 X144.150 Y127.609 E9.85246
G1 X148.830 Y127.609 E10.16874
G1 X148.830 Y134.853 E10.65824
G1 X148.801 Y135.172 E10.67991
G1 X148.706 Y135.502 E10.70309
G1 X148.589 Y135.735 E10.72073
G1 X148.360 Y136.036 E10.74630
G1 X148.110 Y136.250 E10.76850
G1 X147.827 Y136.410 E10.79045
G1 X147.281 Y136.593 E10.82939
G1 X147.282 Y137.009 E10.85749
G1 X145.980 Y137.009 E10.94545
G1 X145.981 Y136.509 E10.97924
G1 X132.380 Y136.509 E11.89834
G1 X131.790 Y136.506 F7800.000
G1 X130.770 Y134.713 F7800.000
G1 X131.246 Y135.189 E11.97913 F1200.000
G1 X132.593 Y135.189 E12.14093
G1 X130.751 Y133.347 E12.45389
G1 X130.751 Y132.000 E12.61569
G1 X133.939 Y135.189 E13.15746
G1 X135.286 Y135.189 E13.31926
G1 X130.751 Y130.654 E14.08985
G1 X130.751 Y129.307 E14.25165
G1 X133.823 Y132.379 E14.77365
G1 X133.522 Y130.732 E14.97486
G1 X131.722 Y128.932 E15.28064
G1 X133.070 Y128.933 E15.44259
G1 X133.510 Y129.373 E15.51733
G1 E11.51733 F2400.00000
