; generated by Slic3r 1.2.9 on 2015-12-02 at 14:32:11

; external perimeters extrusion width = 0.40mm
; perimeters extrusion width = 0.56mm
; infill extrusion width = 0.56mm
; solid infill extrusion width = 0.56mm
; top infill extrusion width = 0.56mm

M107
M190 S50 ; set bed temperature
M104 S210 ; set temperature
G28 ; home all axes
G1 Z5 F5000 ; lift nozzle

M109 S210 ; wait for temperature to be reached
G21 ; set units to millimeters
G90 ; use absolute coordinates
M82 ; use absolute distances for extrusion
G92 E0
G1 E-3.00000 F2400.00000
G92 E0
G1 Z0.350 F7800.000
G1 X57.728 Y65.718 F7800.000
G1 E3.00000 F2400.00000
G1 X59.480 Y64.239 E3.21095 F2520.000
G1 X61.632 Y63.446 E3.42189
G1 X62.812 Y63.340 E3.53084
G1 X82.812 Y63.340 E5.37040
G1 X85.071 Y63.737 E5.58134
G1 X87.300 Y65.092 E5.82122
G1 X141.675 Y115.162 E12.61995
G1 X143.068 Y116.984 E12.83089
G1 X143.813 Y120.035 E13.11978
G1 X143.809 Y125.272 E13.60143
G1 X143.762 Y126.100 E13.67773
G1 X143.657 Y126.923 E13.75406
G1 X143.593 Y127.274 E13.78689
G1 X143.404 Y128.082 E13.86318
G1 X143.158 Y128.875 E13.93951
G1 X142.857 Y129.647 E14.01582
G1 X142.444 Y130.498 E14.10282
G1 X142.075 Y131.144 E14.17122
G1 X141.819 Y131.541 E14.21462
G1 X141.361 Y132.173 E14.28646
G1 X140.836 Y132.801 E14.36173
G1 X140.577 Y133.080 E14.39681
G1 X140.217 Y133.439 E14.44352
G1 X139.658 Y133.940 E14.51253
G1 X138.963 Y134.479 E14.59351
G1 X138.621 Y134.716 E14.63175
G1 X137.993 Y135.104 E14.69963
G1 X137.538 Y135.354 E14.74735
G1 X137.106 Y135.568 E14.79170
G1 X136.404 Y135.868 E14.86196
G1 X135.701 Y136.115 E14.93047
G1 X135.230 Y136.253 E14.97562
G1 X134.786 Y136.365 E15.01773
G1 X134.102 Y136.499 E15.08188
G1 X133.639 Y136.566 E15.12490
G1 X132.882 Y136.635 E15.19475
G1 X132.188 Y136.660 E15.25867
G1 X122.188 Y136.660 E16.17845
G1 X121.493 Y136.635 E16.24237
G1 X120.739 Y136.566 E16.31207
G1 X119.934 Y136.437 E16.38707
G1 X119.145 Y136.253 E16.46155
G1 X118.363 Y136.011 E16.53687
G1 X117.595 Y135.712 E16.61259
G1 X117.130 Y135.500 E16.65962
G1 X116.394 Y135.111 E16.73622
G1 X115.690 Y134.672 E16.81253
G1 X115.022 Y134.187 E16.88847
G1 X114.414 Y133.676 E16.96150
G1 X60.038 Y83.606 E23.76022
G1 X59.417 Y83.003 E23.83986
G1 X58.870 Y82.390 E23.91540
G1 X58.643 Y82.108 E23.94873
G1 X58.180 Y81.469 E24.02130
G1 X57.751 Y80.781 E24.09584
G1 X57.374 Y80.074 E24.16960
G1 X57.007 Y79.247 E24.25279
G1 X56.729 Y78.466 E24.32908
G1 X56.507 Y77.666 E24.40546
G1 X56.343 Y76.853 E24.48172
G1 X56.276 Y76.385 E24.52521
G1 X56.204 Y75.559 E24.60144
G1 X56.187 Y74.965 E24.65610
G1 X56.187 Y69.965 E25.11599
G1 X56.584 Y67.706 E25.32694
G1 X57.698 Y65.770 E25.53237
G1 E22.53237 F2400.00000
G92 E0
G1 X81.835 Y70.940 F7800.000
G1 E3.00000 F2400.00000
G1 X81.825 Y75.268 E3.39812 F2520.000
G1 X81.745 Y75.820 E3.44944
G1 X81.583 Y76.371 E3.50225
G1 X81.480 Y76.619 E3.52691
G1 X81.175 Y77.173 E3.58502
G1 X81.035 Y77.374 E3.60766
G1 X80.649 Y77.818 E3.66173
G1 X80.452 Y78.003 E3.68655
G1 X80.236 Y78.177 E3.71204
G1 X79.751 Y78.490 E3.76519
G1 X79.474 Y78.630 E3.79376
G1 X78.957 Y78.823 E3.84452
G1 X78.405 Y78.943 E3.89645
G1 X77.776 Y78.990 E3.95449
G1 X67.834 Y78.990 E4.86888
G1 X67.510 Y78.975 E4.89872
G1 X66.950 Y78.894 E4.95079
G1 X66.404 Y78.734 E5.00313
G1 X66.141 Y78.625 E5.02928
G1 X65.640 Y78.352 E5.08178
G1 X65.402 Y78.187 E5.10844
G1 X64.967 Y77.810 E5.16135
G1 X64.605 Y77.395 E5.21205
G1 X64.292 Y76.908 E5.26525
G1 X64.149 Y76.632 E5.29387
G1 X63.951 Y76.099 E5.34618
G1 X63.829 Y75.538 E5.39900
G1 X63.787 Y74.948 E5.45341
G1 X63.787 Y70.940 E5.82201
G1 X67.837 Y70.941 E6.19454
G1 X67.837 Y73.485 E6.42856
G1 X67.853 Y73.876 E6.46453
G1 X67.904 Y74.284 E6.50236
G1 X67.989 Y74.686 E6.54018
G1 X68.106 Y75.082 E6.57811
G1 X68.260 Y75.473 E6.61682
G1 X68.436 Y75.833 E6.65365
G1 X68.647 Y76.186 E6.69148
G1 X68.886 Y76.521 E6.72930
G1 X69.151 Y76.835 E6.76713
G1 X69.442 Y77.126 E6.80496
G1 X69.756 Y77.392 E6.84278
G1 X70.082 Y77.624 E6.87961
G1 X70.443 Y77.841 E6.91832
G1 X70.813 Y78.022 E6.95625
G1 X71.197 Y78.171 E6.99408
G1 X71.591 Y78.288 E7.03190
G1 X71.993 Y78.373 E7.06973
G1 X72.401 Y78.424 E7.10755
G1 X72.812 Y78.441 E7.14538
G1 X73.223 Y78.424 E7.18320
G1 X73.631 Y78.373 E7.22103
G1 X74.034 Y78.288 E7.25886
G1 X74.428 Y78.171 E7.29668
G1 X74.811 Y78.022 E7.33451
G1 X75.180 Y77.841 E7.37233
G1 X75.534 Y77.630 E7.41016
G1 X75.868 Y77.392 E7.44798
G1 X76.182 Y77.126 E7.48581
G1 X76.473 Y76.835 E7.52363
G1 X76.739 Y76.521 E7.56146
G1 X76.978 Y76.186 E7.59928
G1 X77.188 Y75.833 E7.63711
G1 X77.369 Y75.464 E7.67493
G1 X77.518 Y75.081 E7.71276
G1 X77.636 Y74.686 E7.75058
G1 X77.720 Y74.284 E7.78841
G1 X77.771 Y73.876 E7.82623
G1 X77.787 Y73.485 E7.86220
G1 X77.787 Y70.940 E8.09631
G1 X81.775 Y70.940 E8.46311
G1 X82.461 Y70.315 F7800.000
G1 X82.449 Y75.303 E8.92185 F1260.000
G1 X82.356 Y75.953 E8.98233
G1 X82.169 Y76.590 E9.04335
G1 X82.044 Y76.890 E9.07325
G1 X81.707 Y77.503 E9.13760
G1 X81.528 Y77.759 E9.16631
G1 X81.100 Y78.253 E9.22643
G1 X80.862 Y78.475 E9.25635
G1 X80.603 Y78.684 E9.28694
G1 X80.062 Y79.033 E9.34616
G1 X79.734 Y79.199 E9.37995
G1 X79.122 Y79.426 E9.44005
G1 X78.495 Y79.563 E9.49905
G1 X77.799 Y79.615 E9.56327
G1 X67.820 Y79.615 E10.48111
G1 X67.451 Y79.598 E10.51509
G1 X66.817 Y79.506 E10.57406
G1 X66.196 Y79.324 E10.63356
G1 X65.871 Y79.190 E10.66588
G1 X65.312 Y78.884 E10.72450
G1 X65.018 Y78.681 E10.75733
G1 X64.533 Y78.261 E10.81638
G1 X64.097 Y77.761 E10.87738
G1 X63.750 Y77.221 E10.93641
G1 X63.582 Y76.895 E10.97019
G1 X63.351 Y76.275 E11.03103
G1 X63.210 Y75.627 E11.09205
G1 X63.162 Y74.959 E11.15364
G1 X63.162 Y70.315 E11.58076
G1 X67.797 Y70.316 E12.00704
G1 X67.980 Y70.340 E12.02400
G1 X68.136 Y70.405 E12.03954
G1 X68.270 Y70.508 E12.05507
G1 X68.372 Y70.642 E12.07061
G1 X68.437 Y70.798 E12.08614
G1 X68.462 Y70.988 E12.10380
G1 X68.462 Y73.472 E12.33230
G1 X68.477 Y73.824 E12.36471
G1 X68.521 Y74.181 E12.39778
G1 X68.595 Y74.533 E12.43085
G1 X68.698 Y74.878 E12.46396
G1 X68.833 Y75.222 E12.49791
G1 X68.986 Y75.536 E12.53006
G1 X69.170 Y75.844 E12.56313
G1 X69.379 Y76.137 E12.59620
G1 X69.612 Y76.411 E12.62927
G1 X69.866 Y76.666 E12.66234
G1 X70.140 Y76.898 E12.69541
G1 X70.425 Y77.101 E12.72756
G1 X70.741 Y77.291 E12.76151
G1 X71.065 Y77.449 E12.79462
G1 X71.400 Y77.580 E12.82769
G1 X71.744 Y77.682 E12.86076
G1 X72.096 Y77.756 E12.89384
G1 X72.453 Y77.800 E12.92691
G1 X72.812 Y77.815 E12.95998
G1 X73.171 Y77.800 E12.99305
G1 X73.528 Y77.756 E13.02612
G1 X73.880 Y77.682 E13.05919
G1 X74.225 Y77.580 E13.09226
G1 X74.560 Y77.449 E13.12533
G1 X74.883 Y77.291 E13.15840
G1 X75.192 Y77.107 E13.19147
G1 X75.484 Y76.898 E13.22454
G1 X75.759 Y76.666 E13.25761
G1 X76.013 Y76.411 E13.29069
G1 X76.245 Y76.137 E13.32376
G1 X76.454 Y75.844 E13.35683
G1 X76.638 Y75.536 E13.38990
G1 X76.796 Y75.212 E13.42297
G1 X76.927 Y74.878 E13.45604
G1 X77.029 Y74.533 E13.48911
G1 X77.103 Y74.181 E13.52218
G1 X77.148 Y73.824 E13.55525
G1 X77.162 Y73.472 E13.58766
G1 X77.162 Y70.988 E13.81616
G1 X77.187 Y70.799 E13.83370
G1 X77.256 Y70.636 E13.84991
G1 X77.355 Y70.508 E13.86486
G1 X77.489 Y70.405 E13.88040
G1 X77.645 Y70.340 E13.89593
G1 X77.835 Y70.315 E13.91360
G1 X82.401 Y70.315 E14.33359
G1 X82.261 Y70.661 F7800.000
G1 X81.455 Y71.624 F7800.000
G1 X81.150 Y71.318 E14.37513 F840.000
G1 X80.225 Y71.318 E14.46421
G1 X81.453 Y72.546 E14.63142
G1 X81.451 Y73.469 E14.72029
G1 X79.300 Y71.318 E15.01318
G1 X78.375 Y71.318 E15.10226
G1 X81.448 Y74.392 E15.52082
G1 X81.446 Y75.315 E15.60969
G1 X78.166 Y72.035 E16.05641
G1 X78.166 Y72.960 E16.14549
G1 X81.302 Y76.096 E16.57262
G1 X81.030 Y76.750 E16.64075
G1 X78.139 Y73.858 E17.03446
G1 X78.005 Y74.650 E17.11173
G1 X80.663 Y77.308 E17.47368
G1 X80.205 Y77.775 E17.53667
G1 X77.778 Y75.348 E17.86713
G1 X77.485 Y75.979 E17.93418
G1 X79.662 Y78.157 E18.23073
G1 X79.017 Y78.437 E18.29845
G1 X77.124 Y76.543 E18.55627
G1 X76.710 Y77.055 E18.61961
G1 X78.240 Y78.585 E18.82796
G1 X77.342 Y78.612 E18.91454
G1 X76.236 Y77.506 E19.06515
G1 X76.105 Y78.300 E19.14265
G1 X76.416 Y78.612 E19.18511
G1 X75.689 Y78.329 F7800.000
G1 X74.569 Y78.569 E19.29043 F840.000
G1 X73.882 Y78.659 E19.35420
G1 X71.743 Y78.659 F7800.000
G1 X71.055 Y78.569 E19.41797 F840.000
G1 X69.936 Y78.329 E19.52328
G1 X67.466 Y78.566 F7800.000
G1 X64.209 Y75.308 E19.99820 F840.000
G1 X64.174 Y74.283 E20.10394
G1 X68.503 Y78.612 E20.73497
G1 X69.483 Y78.601 E20.83606
G1 X64.172 Y73.290 E21.61041
G1 X64.169 Y72.297 E21.71279
G1 X68.174 Y76.302 E22.29666
G1 X67.577 Y74.714 F7800.000
G1 X64.194 Y71.332 E22.78988 F840.000
G1 X65.172 Y71.319 E22.89071
G1 X67.459 Y73.606 E23.22409
G1 X67.459 Y72.615 E23.32621
G1 X66.163 Y71.319 E23.51514
G1 X67.154 Y71.319 E23.61728
G1 X67.459 Y71.624 E23.66176
G1 X65.002 Y77.092 F7800.000
G1 X65.673 Y77.763 E23.75964 F840.000
G1 E20.75964 F2400.00000
G92 E0
G1 Z0.600 F7800.000
G1 X82.186 Y70.589 F7800.000
G1 E3.00000 F2400.00000
G1 X82.175 Y75.287 E3.24828 F3600.000
G1 X82.087 Y75.895 E3.28071
G1 X81.911 Y76.494 E3.31370
G1 X81.797 Y76.769 E3.32946
G1 X81.451 Y77.389 E3.36698
G1 X81.295 Y77.611 E3.38132
G1 X80.909 Y78.054 E3.41236
G1 X80.690 Y78.260 E3.42825
G1 X80.441 Y78.462 E3.44519
G1 X79.972 Y78.767 E3.47479
G1 X79.604 Y78.956 E3.49663
G1 X79.039 Y79.164 E3.52844
G1 X78.492 Y79.284 E3.55806
G1 X77.787 Y79.340 E3.59541
G1 X67.830 Y79.340 E4.12160
G1 X67.417 Y79.316 E4.14346
G1 X66.863 Y79.235 E4.17309
G1 X66.312 Y79.074 E4.20343
G1 X65.964 Y78.929 E4.22333
G1 X65.488 Y78.670 E4.25199
G1 X65.165 Y78.447 E4.27269
G1 X64.746 Y78.084 E4.30201
G1 X64.326 Y77.608 E4.33557
G1 X64.024 Y77.140 E4.36500
G1 X63.829 Y76.775 E4.38686
G1 X63.614 Y76.198 E4.41942
G1 X63.482 Y75.588 E4.45241
G1 X63.437 Y74.954 E4.48599
G1 X63.437 Y70.590 E4.71661
G1 X67.792 Y70.592 E4.94676
G1 X67.908 Y70.607 E4.95296
G1 X67.997 Y70.644 E4.95807
G1 X68.074 Y70.703 E4.96317
G1 X68.133 Y70.780 E4.96828
G1 X68.170 Y70.869 E4.97338
G1 X68.188 Y71.006 E4.98067
G1 X68.188 Y73.478 E5.11131
G1 X68.203 Y73.847 E5.13083
G1 X68.250 Y74.226 E5.15103
G1 X68.329 Y74.600 E5.17123
G1 X68.438 Y74.969 E5.19153
G1 X68.589 Y75.348 E5.21311
G1 X68.745 Y75.666 E5.23183
G1 X68.940 Y75.995 E5.25203
G1 X69.162 Y76.306 E5.27223
G1 X69.409 Y76.597 E5.29243
G1 X69.680 Y76.868 E5.31264
G1 X69.971 Y77.115 E5.33284
G1 X70.260 Y77.321 E5.35155
G1 X70.609 Y77.532 E5.37313
G1 X70.954 Y77.700 E5.39344
G1 X71.310 Y77.839 E5.41364
G1 X71.679 Y77.949 E5.43394
G1 X72.079 Y78.030 E5.45552
G1 X72.430 Y78.074 E5.47424
G1 X72.812 Y78.090 E5.49444
G1 X73.194 Y78.074 E5.51464
G1 X73.573 Y78.027 E5.53484
G1 X73.948 Y77.949 E5.55504
G1 X74.314 Y77.839 E5.57524
G1 X74.670 Y77.700 E5.59544
G1 X75.013 Y77.533 E5.61565
G1 X75.342 Y77.337 E5.63585
G1 X75.653 Y77.115 E5.65605
G1 X75.945 Y76.868 E5.67625
G1 X76.215 Y76.597 E5.69645
G1 X76.462 Y76.306 E5.71665
G1 X76.684 Y75.995 E5.73685
G1 X76.880 Y75.666 E5.75705
G1 X77.048 Y75.323 E5.77726
G1 X77.187 Y74.967 E5.79746
G1 X77.296 Y74.600 E5.81766
G1 X77.374 Y74.226 E5.83786
G1 X77.421 Y73.847 E5.85806
G1 X77.437 Y73.478 E5.87758
G1 X77.437 Y71.006 E6.00822
G1 X77.455 Y70.869 E6.01550
G1 X77.492 Y70.780 E6.02061
G1 X77.550 Y70.703 E6.02572
G1 X77.627 Y70.644 E6.03082
G1 X77.716 Y70.607 E6.03593
G1 X77.853 Y70.589 E6.04322
G1 X82.126 Y70.589 E6.26904
G1 X82.612 Y70.165 F7800.000
G1 X82.599 Y75.311 E6.45641 F1800.000
G1 X82.502 Y75.985 E6.48123
G1 X82.309 Y76.642 E6.50617
G1 X82.180 Y76.955 E6.51848
G1 X81.811 Y77.616 E6.54604
G1 X81.629 Y77.873 E6.55752
G1 X81.216 Y78.349 E6.58048
G1 X80.969 Y78.580 E6.59278
G1 X80.691 Y78.805 E6.60581
G1 X80.185 Y79.135 E6.62781
G1 X79.782 Y79.342 E6.64431
G1 X79.151 Y79.574 E6.66877
G1 X78.554 Y79.705 E6.69103
G1 X77.804 Y79.765 E6.71843
G1 X67.818 Y79.765 E7.08207
G1 X67.374 Y79.739 E7.09826
G1 X66.772 Y79.650 E7.12043
G1 X66.170 Y79.475 E7.14324
G1 X65.780 Y79.313 E7.15862
G1 X65.265 Y79.032 E7.18000
G1 X64.905 Y78.784 E7.19592
G1 X64.451 Y78.391 E7.21777
G1 X64.171 Y78.092 E7.23269
G1 X63.981 Y77.857 E7.24369
G1 X63.658 Y77.355 E7.26542
G1 X63.445 Y76.957 E7.28188
G1 X63.207 Y76.317 E7.30673
G1 X63.061 Y75.648 E7.33166
G1 X63.012 Y74.961 E7.35673
G1 X63.012 Y70.165 E7.53138
G1 X67.819 Y70.168 E7.70644
G1 X68.019 Y70.194 E7.71376
G1 X68.211 Y70.274 E7.72134
G1 X68.377 Y70.401 E7.72893
G1 X68.503 Y70.566 E7.73652
G1 X68.583 Y70.758 E7.74411
G1 X68.612 Y70.978 E7.75218
G1 X68.612 Y73.469 E7.84289
G1 X68.626 Y73.812 E7.85538
G1 X68.669 Y74.156 E7.86802
G1 X68.740 Y74.496 E7.88066
G1 X68.840 Y74.829 E7.89332
G1 X68.977 Y75.176 E7.90691
G1 X69.118 Y75.464 E7.91858
G1 X69.296 Y75.762 E7.93122
G1 X69.498 Y76.045 E7.94386
G1 X69.722 Y76.310 E7.95650
G1 X69.967 Y76.555 E7.96914
G1 X70.232 Y76.780 E7.98178
G1 X70.493 Y76.966 E7.99345
G1 X70.813 Y77.159 E8.00704
G1 X71.125 Y77.311 E8.01970
G1 X71.448 Y77.438 E8.03234
G1 X71.782 Y77.537 E8.04500
G1 X72.147 Y77.611 E8.05860
G1 X72.465 Y77.651 E8.07026
G1 X72.812 Y77.665 E8.08290
G1 X73.159 Y77.651 E8.09554
G1 X73.503 Y77.608 E8.10818
G1 X73.843 Y77.537 E8.12082
G1 X74.176 Y77.438 E8.13347
G1 X74.499 Y77.311 E8.14611
G1 X74.811 Y77.159 E8.15875
G1 X75.109 Y76.981 E8.17139
G1 X75.392 Y76.780 E8.18403
G1 X75.657 Y76.555 E8.19667
G1 X75.902 Y76.310 E8.20931
G1 X76.127 Y76.045 E8.22195
G1 X76.328 Y75.762 E8.23459
G1 X76.506 Y75.464 E8.24723
G1 X76.659 Y75.152 E8.25987
G1 X76.785 Y74.829 E8.27251
G1 X76.884 Y74.496 E8.28516
G1 X76.955 Y74.156 E8.29780
G1 X76.998 Y73.812 E8.31044
G1 X77.012 Y73.469 E8.32293
G1 X77.012 Y70.978 E8.41364
G1 X77.041 Y70.758 E8.42171
G1 X77.121 Y70.566 E8.42929
G1 X77.248 Y70.401 E8.43688
G1 X77.413 Y70.274 E8.44447
G1 X77.606 Y70.194 E8.45206
G1 X77.825 Y70.165 E8.46013
G1 X82.552 Y70.165 E8.63224
G1 X82.411 Y70.511 F7800.000
G1 X77.737 Y71.373 F7800.000
G1 X78.220 Y70.890 E8.66834 F1200.000
G1 X78.931 Y70.890 E8.70596
G1 X77.737 Y72.084 E8.79527
G1 X77.737 Y72.796 E8.83290
G1 X79.643 Y70.890 E8.97541
G1 X80.354 Y70.890 E9.01304
G1 X77.737 Y73.507 E9.20876
G1 X77.686 Y74.270 E9.24920
G1 X81.066 Y70.890 E9.50199
G1 X81.777 Y70.890 E9.53961
G1 X77.467 Y75.200 E9.86195
G1 X80.297 Y78.061 F7800.000
G1 X80.916 Y77.442 E9.90829 F1200.000
G1 X81.732 Y75.914 F7800.000
G1 X78.754 Y78.893 E10.13107 F1200.000
G1 X77.916 Y79.020 E10.17591
G1 X81.875 Y75.061 E10.47202
G1 X81.876 Y74.348 E10.50973
G1 X77.184 Y79.040 E10.86068
G1 X76.473 Y79.040 E10.89830
G1 X81.878 Y73.635 E11.30259
G1 X81.880 Y72.921 E11.34030
G1 X75.761 Y79.040 E11.79791
G1 X75.050 Y79.040 E11.83554
G1 X81.881 Y72.208 E12.34649
G1 X81.883 Y71.495 E12.38420
G1 X74.339 Y79.040 E12.94848
G1 X73.627 Y79.040 E12.98611
G1 X74.547 Y78.120 E13.05490
G1 X73.617 Y78.339 E13.10542
G1 X72.916 Y79.040 E13.15788
G1 X72.856 Y78.388 E13.19248
G1 X72.204 Y79.040 E13.24121
G1 X72.197 Y78.336 E13.27845
G1 X71.493 Y79.040 E13.33112
G1 X70.782 Y79.040 E13.36875
G1 X71.607 Y78.214 E13.43049
G1 X71.074 Y78.036 E13.46023
G1 X70.070 Y79.040 E13.53530
G1 X69.359 Y79.040 E13.57293
G1 X70.584 Y77.814 E13.66460
G1 X70.137 Y77.551 E13.69208
G1 X68.647 Y79.040 E13.80347
G1 X67.936 Y79.040 E13.84110
G1 X69.729 Y77.247 E13.97523
G1 X69.357 Y76.908 E14.00186
G1 X67.260 Y79.004 E14.15865
G1 X66.663 Y78.890 E14.19081
G1 X69.019 Y76.534 E14.36701
G1 X68.716 Y76.126 E14.39390
G1 X66.132 Y78.709 E14.58715
G1 X65.663 Y78.467 E14.61507
G1 X68.455 Y75.676 E14.82382
G1 X68.235 Y75.184 E14.85230
G1 X65.243 Y78.175 E15.07602
G1 X64.881 Y77.827 E15.10263
G1 X68.057 Y74.650 E15.34020
G1 X67.939 Y74.057 E15.37218
G1 X64.538 Y77.458 E15.62650
G1 X64.260 Y77.024 E15.65373
G1 X67.888 Y73.397 E15.92503
G1 X67.887 Y72.686 E15.96262
G1 X64.025 Y76.548 E16.25145
G1 X63.856 Y76.006 E16.28149
G1 X67.887 Y71.975 E16.58297
G1 X67.887 Y71.264 E16.62060
G1 X63.755 Y75.396 E16.92967
G1 X63.747 Y74.692 E16.96689
G1 X67.547 Y70.893 E17.25106
G1 X66.836 Y70.892 E17.28867
G1 X63.745 Y73.982 E17.51979
G1 X63.744 Y73.273 E17.55732
G1 X66.125 Y70.892 E17.73540
G1 X65.414 Y70.891 E17.77300
G1 X63.742 Y72.563 E17.89803
G1 X63.740 Y71.853 E17.93557
G1 X64.703 Y70.891 E18.00755
G1 X63.992 Y70.891 E18.04515
G1 X63.738 Y71.144 E18.06409
G1 E15.06409 F2400.00000
G92 E0
G1 Z0.850 F7800.000
