; generated by Slic3r 1.2.9 on 2015-12-04 at 11:51:44

; external perimeters extrusion width = 0.40mm
; perimeters extrusion width = 0.68mm
; infill extrusion width = 0.87mm
; solid infill extrusion width = 0.68mm
; top infill extrusion width = 0.68mm

M107
M190 S50 ; set bed temperature
M104 S210 ; set temperature
G28 ; home all axes
G1 Z5 F5000 ; lift nozzle

M109 S210 ; wait for temperature to be reached
G21 ; set units to millimeters
G90 ; use absolute coordinates
M82 ; use absolute distances for extrusion
G92 E0
G1 Z0.350 F7800.000
G1 E-4.00000 F2400.00000
G92 E0
G1 X37.163 Y40.069 F7800.000
G1 E4.00000 F2400.00000
G1 X39.020 Y38.724 E4.21095 F2520.000
G1 X41.608 Y38.063 E4.45661
G1 X138.275 Y33.518 E13.35762
G1 X158.586 Y33.510 E15.22579
G1 X160.845 Y33.907 E15.43674
G1 X162.833 Y35.051 E15.64768 F2520.000
G1 X164.312 Y36.803 E15.85863
G1 X165.204 Y39.841 E16.14979
G1 X166.725 Y74.084 E19.30254
G1 X167.230 Y110.650 E22.66609
G1 X167.231 Y115.741 E23.13439
G1 X167.180 Y116.806 E23.23244
G1 X167.075 Y117.629 E23.30877
G1 X166.972 Y118.183 E23.36062
G1 X158.644 Y157.307 E27.03975
G1 X158.362 Y158.366 E27.14053
G1 X158.084 Y159.147 E27.21684
G1 X157.717 Y159.974 E27.30001
G1 X157.338 Y160.682 E27.37385
G1 X156.910 Y161.370 E27.44845
G1 X156.452 Y162.003 E27.52029
G1 X155.927 Y162.631 E27.59556
G1 X155.398 Y163.183 E27.66589
G1 X154.749 Y163.770 E27.74636
G1 X154.053 Y164.309 E27.82733
G1 X153.355 Y164.773 E27.90444
G1 X152.629 Y165.183 E27.98115
G1 X151.882 Y165.538 E28.05717
G1 X151.119 Y165.835 E28.13250
G1 X150.320 Y166.083 E28.20940
G1 X149.524 Y166.269 E28.28457
G1 X148.729 Y166.396 E28.35866
G1 X147.973 Y166.465 E28.42851
G1 X147.278 Y166.490 E28.49243
G1 X137.273 Y166.490 E29.41266
G1 X92.975 Y166.457 E33.48713
G1 X92.137 Y166.424 E33.56425
G1 X47.891 Y163.421 E37.64326
G1 X47.285 Y163.361 E37.69931
G1 X46.479 Y163.232 E37.77432
G1 X46.024 Y163.133 E37.81715
G1 X45.348 Y162.950 E37.88164
G1 X44.682 Y162.725 E37.94623
G1 X44.141 Y162.507 E37.99987
G1 X43.208 Y162.057 E38.09523
G1 X42.442 Y161.604 E38.17705
G1 X41.568 Y160.981 E38.27574
G1 X41.136 Y160.627 E38.32713
G1 X40.697 Y160.227 E38.38177
G1 X39.975 Y159.473 E38.47775
G1 X39.295 Y158.612 E38.57867
G1 X38.846 Y157.937 E38.65321
G1 X38.478 Y157.293 E38.72148
G1 X38.065 Y156.442 E38.80848
G1 X37.763 Y155.669 E38.88478
G1 X37.517 Y154.877 E38.96112
G1 X37.429 Y154.530 E38.99399
G1 X37.265 Y153.717 E39.07026
G1 X37.160 Y152.894 E39.14657
G1 X32.795 Y84.499 E45.45023
G1 X32.773 Y83.957 E45.50008
G1 X32.769 Y78.721 E45.98172
G1 X32.787 Y78.231 E46.02683
G1 X35.312 Y44.190 E49.16639
G1 X35.875 Y41.967 E49.37734
G1 X37.129 Y40.119 E49.58277
G1 E45.58277 F2400.00000
G92 E0
G1 X107.508 Y44.645 F7800.000
G1 E4.00000 F2400.00000
G1 X107.497 Y48.974 E4.39812 F2520.000
G1 X107.417 Y49.526 E4.44944
G1 X107.256 Y50.077 E4.50225
G1 X107.153 Y50.325 E4.52691
G1 X106.848 Y50.878 E4.58502
G1 X106.707 Y51.080 E4.60766
G1 X106.322 Y51.524 E4.66173
G1 X106.125 Y51.708 E4.68655
G1 X105.909 Y51.882 E4.71204
G1 X105.424 Y52.195 E4.76519
G1 X105.147 Y52.336 E4.79376
G1 X104.629 Y52.528 E4.84452
G1 X104.078 Y52.649 E4.89645
G1 X103.448 Y52.696 E4.95449
G1 X93.507 Y52.696 E5.86888
G1 X93.183 Y52.681 E5.89872
G1 X92.623 Y52.600 E5.95079
G1 X92.077 Y52.440 E6.00313
G1 X91.814 Y52.331 E6.02928
G1 X91.313 Y52.057 E6.08178
G1 X91.075 Y51.892 E6.10844
G1 X90.640 Y51.516 E6.16135
G1 X90.277 Y51.100 E6.21205
G1 X89.964 Y50.614 E6.26525
G1 X89.822 Y50.337 E6.29387
G1 X89.623 Y49.804 E6.34618
G1 X89.501 Y49.243 E6.39900
G1 X89.460 Y48.653 E6.45341
G1 X89.460 Y44.646 E6.82201
G1 X93.510 Y44.646 E7.19454
G1 X93.510 Y47.191 E7.42856
G1 X93.526 Y47.581 E7.46453
G1 X93.577 Y47.989 E7.50236
G1 X93.661 Y48.392 E7.54018
G1 X93.779 Y48.787 E7.57811
G1 X93.933 Y49.179 E7.61682
G1 X94.109 Y49.539 E7.65365
G1 X94.319 Y49.892 E7.69148
G1 X94.558 Y50.227 E7.72930
G1 X94.824 Y50.540 E7.76713
G1 X95.115 Y50.831 E7.80496
G1 X95.429 Y51.097 E7.84278
G1 X95.755 Y51.330 E7.87961
G1 X96.116 Y51.546 E7.91832
G1 X96.486 Y51.727 E7.95625
G1 X96.869 Y51.877 E7.99408
G1 X97.263 Y51.994 E8.03190
G1 X97.666 Y52.078 E8.06973
G1 X98.074 Y52.129 E8.10755
G1 X98.485 Y52.146 E8.14538
G1 X98.896 Y52.129 E8.18320
G1 X99.304 Y52.078 E8.22103
G1 X99.706 Y51.994 E8.25886
G1 X100.100 Y51.877 E8.29668
G1 X100.484 Y51.727 E8.33451
G1 X100.853 Y51.546 E8.37233
G1 X101.206 Y51.336 E8.41016
G1 X101.541 Y51.097 E8.44798
G1 X101.855 Y50.831 E8.48581
G1 X102.146 Y50.540 E8.52363
G1 X102.411 Y50.227 E8.56146
G1 X102.650 Y49.892 E8.59928
G1 X102.861 Y49.539 E8.63711
G1 X103.041 Y49.169 E8.67493
G1 X103.191 Y48.786 E8.71276
G1 X103.308 Y48.392 E8.75058
G1 X103.393 Y47.989 E8.78841
G1 X103.444 Y47.581 E8.82623
G1 X103.460 Y47.191 E8.86220
G1 X103.460 Y44.645 E9.09631
G1 X107.448 Y44.645 E9.46311
G1 X108.134 Y44.020 F7800.000
G1 X108.122 Y49.008 E9.92185 F1260.000
G1 X108.028 Y49.659 E9.98233
G1 X107.841 Y50.295 E10.04335
G1 X107.717 Y50.596 E10.07325
G1 X107.380 Y51.209 E10.13760
G1 X107.201 Y51.464 E10.16631
G1 X106.773 Y51.958 E10.22643
G1 X106.535 Y52.180 E10.25635
G1 X106.276 Y52.389 E10.28694
G1 X105.735 Y52.738 E10.34616
G1 X105.407 Y52.904 E10.37995
G1 X104.795 Y53.132 E10.44005
G1 X104.168 Y53.268 E10.49905
G1 X103.472 Y53.320 E10.56327
G1 X93.493 Y53.320 E11.48111
G1 X93.124 Y53.304 E11.51509
G1 X92.489 Y53.212 E11.57406
G1 X91.868 Y53.030 E11.63356
G1 X91.544 Y52.895 E11.66588
G1 X90.984 Y52.590 E11.72450
G1 X90.691 Y52.387 E11.75733
G1 X90.206 Y51.966 E11.81638
G1 X89.770 Y51.466 E11.87738
G1 X89.423 Y50.927 E11.93641
G1 X89.255 Y50.600 E11.97019
G1 X89.023 Y49.980 E12.03103
G1 X88.882 Y49.332 E12.09205
G1 X88.835 Y48.664 E12.15364
G1 X88.835 Y44.021 E12.58076
G1 X93.469 Y44.021 E13.00704
G1 X93.652 Y44.046 E13.02400
G1 X93.808 Y44.110 E13.03954
G1 X93.942 Y44.213 E13.05507
G1 X94.045 Y44.347 E13.07061
G1 X94.110 Y44.503 E13.08614
G1 X94.135 Y44.693 E13.10380
G1 X94.135 Y47.178 E13.33230
G1 X94.149 Y47.530 E13.36471
G1 X94.194 Y47.887 E13.39778
G1 X94.268 Y48.238 E13.43085
G1 X94.370 Y48.583 E13.46396
G1 X94.505 Y48.927 E13.49791
G1 X94.659 Y49.241 E13.53006
G1 X94.843 Y49.550 E13.56313
G1 X95.052 Y49.842 E13.59620
G1 X95.284 Y50.117 E13.62927
G1 X95.538 Y50.371 E13.66234
G1 X95.813 Y50.603 E13.69541
G1 X96.097 Y50.807 E13.72756
G1 X96.414 Y50.996 E13.76151
G1 X96.737 Y51.154 E13.79462
G1 X97.072 Y51.285 E13.82769
G1 X97.417 Y51.388 E13.86076
G1 X97.769 Y51.461 E13.89384
G1 X98.126 Y51.506 E13.92691
G1 X98.485 Y51.521 E13.95998
G1 X98.844 Y51.506 E13.99305
G1 X99.201 Y51.461 E14.02612
G1 X99.553 Y51.388 E14.05919
G1 X99.897 Y51.285 E14.09226
G1 X100.232 Y51.154 E14.12533
G1 X100.555 Y50.996 E14.15840
G1 X100.864 Y50.812 E14.19147
G1 X101.157 Y50.603 E14.22454
G1 X101.431 Y50.371 E14.25761
G1 X101.685 Y50.117 E14.29069
G1 X101.918 Y49.842 E14.32376
G1 X102.127 Y49.550 E14.35683
G1 X102.311 Y49.241 E14.38990
G1 X102.469 Y48.918 E14.42297
G1 X102.599 Y48.583 E14.45604
G1 X102.702 Y48.238 E14.48911
G1 X102.776 Y47.887 E14.52218
G1 X102.820 Y47.530 E14.55525
G1 X102.835 Y47.178 E14.58766
G1 X102.835 Y44.693 E14.81616
G1 X102.860 Y44.504 E14.83370
G1 X102.928 Y44.342 E14.84991
G1 X103.027 Y44.213 E14.86486
G1 X103.161 Y44.110 E14.88040
G1 X103.317 Y44.046 E14.89593
G1 X103.508 Y44.020 E14.91360
G1 X108.074 Y44.020 E15.33359
G1 X107.933 Y44.367 F7800.000
G1 X107.128 Y45.329 F7800.000
G1 X106.823 Y45.024 E15.37513 F840.000
G1 X105.898 Y45.024 E15.46421
G1 X107.126 Y46.252 E15.63142
G1 X107.123 Y47.175 E15.72029
G1 X104.972 Y45.024 E16.01318
G1 X104.047 Y45.024 E16.10226
G1 X107.121 Y48.098 E16.52082
G1 X107.119 Y49.021 E16.60969
G1 X103.838 Y45.740 E17.05641
G1 X103.838 Y46.665 E17.14549
G1 X106.975 Y49.802 E17.57262
G1 X106.703 Y50.455 E17.64075
G1 X103.812 Y47.564 E18.03446
G1 X103.678 Y48.355 E18.11173
G1 X106.336 Y51.013 E18.47368
G1 X105.878 Y51.480 E18.53667
G1 X103.451 Y49.053 E18.86713
G1 X103.157 Y49.685 E18.93418
G1 X105.335 Y51.862 E19.23073
G1 X104.690 Y52.142 E19.29845
G1 X102.796 Y50.249 E19.55627
G1 X102.383 Y50.761 E19.61961
G1 X103.913 Y52.291 E19.82796
G1 X103.014 Y52.317 E19.91454
G1 X101.908 Y51.211 E20.06515
G1 X101.777 Y52.005 E20.14265
G1 X102.089 Y52.317 E20.18511
G1 X101.361 Y52.034 F7800.000
G1 X100.242 Y52.274 E20.29043 F840.000
G1 X99.554 Y52.364 E20.35420
G1 X97.415 Y52.364 F7800.000
G1 X96.728 Y52.274 E20.41797 F840.000
G1 X95.608 Y52.034 E20.52328
G1 X93.139 Y52.271 F7800.000
G1 X89.882 Y49.014 E20.99820 F840.000
G1 X89.847 Y47.989 E21.10394
G1 X94.175 Y52.317 E21.73497
G1 X95.156 Y52.307 E21.83606
G1 X89.845 Y46.996 E22.61041
G1 X89.842 Y46.003 E22.71279
G1 X93.847 Y50.007 E23.29666
G1 X93.250 Y48.420 F7800.000
G1 X89.867 Y45.037 E23.78988 F840.000
G1 X90.845 Y45.024 E23.89071
G1 X93.131 Y47.311 E24.22409
G1 X93.131 Y46.320 E24.32621
G1 X91.836 Y45.025 E24.51514
G1 X92.826 Y45.025 E24.61728
G1 X93.131 Y45.330 E24.66176
G1 X90.675 Y50.798 F7800.000
G1 X91.346 Y51.469 E24.75964 F840.000
G1 Z0.500 F7800.000
G1 E20.75964 F2400.00000
G92 E0
G1 X107.775 Y44.378 F7800.000
G1 E4.00000 F2400.00000
G1 X107.764 Y48.988 E4.18839 F3600.000
G1 X107.678 Y49.583 E4.21293
G1 X107.506 Y50.170 E4.23796
G1 X107.395 Y50.439 E4.24984
G1 X107.057 Y51.045 E4.27820
G1 X106.905 Y51.262 E4.28901
G1 X106.521 Y51.703 E4.31292
G1 X106.307 Y51.904 E4.32492
G1 X106.065 Y52.100 E4.33763
G1 X105.595 Y52.405 E4.36054
G1 X105.244 Y52.585 E4.37663
G1 X104.691 Y52.789 E4.40071
G1 X104.146 Y52.908 E4.42353
G1 X103.457 Y52.963 E4.45178
G1 X93.505 Y52.963 E4.85847
G1 X93.109 Y52.940 E4.87469
G1 X92.555 Y52.859 E4.89754
G1 X92.008 Y52.699 E4.92084
G1 X91.677 Y52.562 E4.93549
G1 X91.199 Y52.301 E4.95774
G1 X90.893 Y52.090 E4.97295
G1 X90.473 Y51.726 E4.99565
G1 X90.065 Y51.263 E5.02084
G1 X89.763 Y50.794 E5.04367
G1 X89.578 Y50.446 E5.05978
G1 X89.367 Y49.880 E5.08446
G1 X89.237 Y49.281 E5.10948
G1 X89.193 Y48.658 E5.13502
G1 X89.193 Y44.379 E5.30989
G1 X93.457 Y44.381 E5.48414
G1 X93.559 Y44.394 E5.48836
G1 X93.687 Y44.468 E5.49441
G1 X93.761 Y44.596 E5.50046
G1 X93.777 Y44.717 E5.50542
G1 X93.777 Y47.185 E5.60629
G1 X93.793 Y47.559 E5.62159
G1 X93.841 Y47.945 E5.63749
G1 X93.921 Y48.326 E5.65340
G1 X94.032 Y48.701 E5.66938
G1 X94.184 Y49.085 E5.68623
G1 X94.344 Y49.411 E5.70110
G1 X94.543 Y49.746 E5.71700
G1 X94.769 Y50.062 E5.73291
G1 X95.021 Y50.359 E5.74881
G1 X95.296 Y50.635 E5.76471
G1 X95.593 Y50.886 E5.78061
G1 X95.889 Y51.097 E5.79548
G1 X96.242 Y51.311 E5.81234
G1 X96.594 Y51.482 E5.82832
G1 X96.956 Y51.624 E5.84422
G1 X97.329 Y51.735 E5.86012
G1 X97.710 Y51.815 E5.87603
G1 X98.096 Y51.863 E5.89193
G1 X98.485 Y51.879 E5.90783
G1 X98.874 Y51.863 E5.92373
G1 X99.260 Y51.815 E5.93964
G1 X99.641 Y51.735 E5.95554
G1 X100.014 Y51.624 E5.97144
G1 X100.376 Y51.482 E5.98734
G1 X100.726 Y51.311 E6.00325
G1 X101.060 Y51.112 E6.01915
G1 X101.377 Y50.886 E6.03505
G1 X101.674 Y50.635 E6.05095
G1 X101.949 Y50.359 E6.06686
G1 X102.200 Y50.062 E6.08276
G1 X102.427 Y49.746 E6.09866
G1 X102.626 Y49.411 E6.11457
G1 X102.797 Y49.062 E6.13047
G1 X102.938 Y48.699 E6.14637
G1 X103.049 Y48.326 E6.16227
G1 X103.129 Y47.945 E6.17818
G1 X103.177 Y47.559 E6.19408
G1 X103.193 Y47.185 E6.20938
G1 X103.193 Y44.717 E6.31025
G1 X103.208 Y44.603 E6.31496
G1 X103.283 Y44.468 E6.32124
G1 X103.411 Y44.394 E6.32730
G1 X103.531 Y44.378 E6.33226
G1 X107.715 Y44.378 E6.50324
G1 X108.284 Y43.870 F7800.000
G1 X108.272 Y49.016 E6.62263 F1800.000
G1 X108.175 Y49.691 E6.63845
G1 X107.982 Y50.348 E6.65434
G1 X107.853 Y50.660 E6.66218
G1 X107.488 Y51.316 E6.67959
G1 X107.305 Y51.575 E6.68695
G1 X106.887 Y52.056 E6.70173
G1 X106.640 Y52.287 E6.70957
G1 X106.364 Y52.511 E6.71783
G1 X105.850 Y52.845 E6.73206
G1 X105.457 Y53.046 E6.74229
G1 X104.826 Y53.279 E6.75790
G1 X104.221 Y53.412 E6.77227
G1 X103.477 Y53.470 E6.78959
G1 X93.490 Y53.470 E7.02129
G1 X93.057 Y53.446 E7.03136
G1 X92.447 Y53.356 E7.04568
G1 X91.839 Y53.179 E7.06037
G1 X91.457 Y53.021 E7.06995
G1 X90.932 Y52.734 E7.08383
G1 X90.581 Y52.492 E7.09373
G1 X90.120 Y52.093 E7.10788
G1 X89.845 Y51.799 E7.11721
G1 X89.653 Y51.561 E7.12431
G1 X89.324 Y51.051 E7.13839
G1 X89.118 Y50.662 E7.14860
G1 X88.879 Y50.023 E7.16444
G1 X88.734 Y49.354 E7.18033
G1 X88.685 Y48.667 E7.19630
G1 X88.685 Y43.871 E7.30758
G1 X93.490 Y43.873 E7.41907
G1 X93.691 Y43.899 E7.42379
G1 X93.884 Y43.979 E7.42862
G1 X94.049 Y44.106 E7.43346
G1 X94.176 Y44.271 E7.43829
G1 X94.256 Y44.464 E7.44313
G1 X94.285 Y44.684 E7.44827
G1 X94.285 Y47.175 E7.50607
G1 X94.299 Y47.517 E7.51403
G1 X94.342 Y47.862 E7.52208
G1 X94.413 Y48.202 E7.53013
G1 X94.512 Y48.535 E7.53820
G1 X94.649 Y48.879 E7.54680
G1 X94.791 Y49.170 E7.55430
G1 X94.969 Y49.468 E7.56235
G1 X95.170 Y49.750 E7.57040
G1 X95.395 Y50.015 E7.57846
G1 X95.640 Y50.261 E7.58651
G1 X95.905 Y50.485 E7.59457
G1 X96.168 Y50.673 E7.60207
G1 X96.485 Y50.864 E7.61066
G1 X96.798 Y51.017 E7.61873
G1 X97.121 Y51.143 E7.62678
G1 X97.454 Y51.242 E7.63484
G1 X97.794 Y51.313 E7.64289
G1 X98.138 Y51.356 E7.65095
G1 X98.485 Y51.371 E7.65900
G1 X98.832 Y51.356 E7.66706
G1 X99.176 Y51.313 E7.67511
G1 X99.516 Y51.242 E7.68317
G1 X99.849 Y51.143 E7.69122
G1 X100.172 Y51.017 E7.69927
G1 X100.484 Y50.864 E7.70733
G1 X100.782 Y50.687 E7.71538
G1 X101.065 Y50.485 E7.72344
G1 X101.330 Y50.261 E7.73149
G1 X101.575 Y50.015 E7.73955
G1 X101.799 Y49.750 E7.74760
G1 X102.001 Y49.468 E7.75566
G1 X102.179 Y49.170 E7.76371
G1 X102.331 Y48.858 E7.77176
G1 X102.457 Y48.534 E7.77982
G1 X102.556 Y48.202 E7.78787
G1 X102.628 Y47.862 E7.79593
G1 X102.671 Y47.517 E7.80398
G1 X102.685 Y47.175 E7.81194
G1 X102.685 Y44.684 E7.86974
G1 X102.714 Y44.466 E7.87484
G1 X102.804 Y44.258 E7.88009
G1 X102.920 Y44.106 E7.88454
G1 X103.086 Y43.979 E7.88937
G1 X103.278 Y43.899 E7.89421
G1 X103.498 Y43.870 E7.89935
G1 X108.224 Y43.870 E8.00901
G1 X108.084 Y44.217 F7800.000
G1 X103.586 Y45.086 F7800.000
G1 X103.901 Y44.771 E8.02837 F1200.000
G1 X104.875 Y44.771 E8.07075
G1 X103.586 Y46.061 E8.15003
G1 X103.586 Y47.036 E8.19241
G1 X105.850 Y44.771 E8.33163
G1 X106.825 Y44.771 E8.37401
G1 X103.528 Y48.068 E8.57670
G1 X103.133 Y49.438 E8.63867
G1 X107.380 Y45.191 E8.89978
G1 X107.378 Y46.168 E8.94226
G1 X100.976 Y52.569 E9.33585
G1 X101.951 Y52.569 E9.37823
G1 X107.375 Y47.145 E9.71174
G1 X107.373 Y48.122 E9.75422
G1 X102.926 Y52.569 E10.02767
G1 X103.956 Y52.514 E10.07252
G1 X107.323 Y49.147 E10.27955
G1 X106.464 Y50.981 F7800.000
G1 X105.732 Y51.713 E10.32456 F1200.000
G1 X100.484 Y52.239 F7800.000
G1 X99.365 Y52.384 E10.41901 F1200.000
G1 X98.476 Y52.421 E10.49359
G1 X97.604 Y52.384 E10.56666
G1 X96.486 Y52.239 E10.66111
G1 X95.747 Y52.569 F7800.000
G1 X96.065 Y52.251 E10.68069 F1200.000
G1 X95.862 Y51.480 E10.71533
G1 X94.772 Y52.569 E10.78228
G1 X93.798 Y52.569 E10.82464
G1 X95.293 Y51.074 E10.91656
G1 X94.789 Y50.604 E10.94653
G1 X92.867 Y52.526 E11.06470
G1 X92.075 Y52.343 E11.10002
G1 X94.354 Y50.064 E11.24011
G1 X93.982 Y49.462 E11.27089
G1 X91.416 Y52.028 E11.42863
G1 X90.861 Y51.609 E11.45887
G1 X93.686 Y48.784 E11.63252
G1 X93.479 Y48.016 E11.66708
G1 X90.382 Y51.113 E11.85749
G1 X90.005 Y50.516 E11.88820
G1 X93.387 Y47.134 E12.09607
G1 X93.384 Y46.163 E12.13829
G1 X89.734 Y49.812 E12.36265
G1 X89.597 Y48.975 E12.39954
G1 X93.384 Y45.188 E12.63232
G1 X92.824 Y44.773 E12.66260
G1 X89.594 Y48.003 E12.86112
G1 X89.592 Y47.031 E12.90337
G1 X91.850 Y44.773 E13.04216
G1 X90.876 Y44.773 E13.08450
G1 X89.590 Y46.059 E13.16357
G1 X89.587 Y45.087 E13.20582
G1 X89.902 Y44.772 E13.22517
G1 Z0.650 F7800.000
G1 E9.22517 F2400.00000
G92 E0
G1 X107.775 Y44.378 F7800.000
G1 E4.00000 F2400.00000
G1 X107.764 Y48.988 E4.18839 F3600.000
G1 X107.678 Y49.583 E4.21293
G1 X107.506 Y50.170 E4.23796
G1 X107.395 Y50.438 E4.24980
G1 X107.046 Y51.061 E4.27897
G1 X106.897 Y51.272 E4.28954
G1 X106.525 Y51.700 E4.31270
G1 X106.311 Y51.900 E4.32469
G1 X106.064 Y52.100 E4.33766
G1 X105.618 Y52.392 E4.35945
G1 X105.248 Y52.582 E4.37643
G1 X104.675 Y52.793 E4.40141
G1 X104.164 Y52.905 E4.42277
G1 X103.456 Y52.963 E4.45180
G1 X93.507 Y52.963 E4.85838
G1 X93.079 Y52.936 E4.87590
G1 X92.549 Y52.858 E4.89778
G1 X92.020 Y52.703 E4.92030
G1 X91.664 Y52.556 E4.93606
